(RS-274 Compatible G-code generated for UCCNC controller and Stepcraft 2 Mill)
(Created by in EagleCAD with the stepcraft.ulp 0.2.)
(File: "CD_Cap_brd.brd" created on: 6/29/2016 12:33 PM)
(Use a 1/32inch Bit)

G90 G94 G49
G21
G00 Z5
G00 X0Y0
S19500 M03
G04 P4000
G00 Z1.000
G00 X125.730Y12.700
G01 Z-0.050 F30
G01 X120.650Y12.700 F360
G01 X119.380Y13.970 F360
G01 X119.380Y19.050 F360
G01 X120.650Y20.320 F360
G01 X125.730Y20.320 F360
G01 X127.000Y19.050 F360
G01 X127.000Y13.970 F360
G01 X125.730Y12.700 F360
G00 Z1.000
G00 X95.250Y38.100
G01 Z-0.050 F30
G01 X96.520Y36.830 F360
G01 X96.520Y31.750 F360
G01 X95.250Y30.480 F360
G01 X90.170Y30.480 F360
G01 X88.900Y31.750 F360
G01 X88.900Y36.830 F360
G01 X90.170Y38.100 F360
G01 X95.250Y38.100 F360
G00 Z1.000
G00 X64.770Y19.050
G01 Z-0.050 F30
G01 X66.040Y17.780 F360
G01 X66.040Y12.700 F360
G01 X64.770Y11.430 F360
G01 X59.690Y11.430 F360
G01 X58.420Y12.700 F360
G01 X58.420Y17.780 F360
G01 X59.690Y19.050 F360
G01 X64.770Y19.050 F360
G00 Z1.000
G00 X44.450Y38.100
G01 Z-0.050 F30
G01 X44.450Y26.670 F360
G01 X43.180Y25.400 F360
G01 X33.020Y25.400 F360
G01 X31.750Y26.670 F360
G01 X31.750Y38.100 F360
G00 Z1.000
G00 X44.450Y0.000
G01 Z-0.050 F30
G01 X44.450Y11.430 F360
G01 X43.180Y12.700 F360
G01 X33.020Y12.700 F360
G01 X31.750Y11.430 F360
G01 X31.750Y0.000 F360
G00 Z1.000
G00 X25.400Y34.290
G01 Z-0.050 F30
G01 X22.860Y34.290 F360
G01 X22.860Y30.480 F360
G01 X22.860Y7.620 F360
G01 X22.860Y3.810 F360
G01 X25.400Y3.810 F360
G01 X25.400Y16.510 F360
G01 X26.670Y17.780 F360
G01 X26.670Y20.320 F360
G01 X25.400Y21.590 F360
G01 X25.400Y34.290 F360
G00 Z1.000
G00 X22.860Y34.290
G01 Z-0.050 F30
G01 X19.050Y34.290 F360
G01 X19.050Y30.480 F360
G01 X22.860Y30.480 F360
G00 Z1.000
G00 X22.860Y3.810
G01 Z-0.050 F30
G01 X19.050Y3.810 F360
G01 X19.050Y7.620 F360
G01 X22.860Y7.620 F360
G00 Z1.000
G00 X19.050Y34.290
G01 Z-0.050 F30
G01 X19.050Y38.100 F360
G00 Z1.000
G00 X19.050Y3.810
G01 Z-0.050 F30
G01 X19.050Y0.000 F360
G00 Z1.000
M05
G04 P4000
G00 X0Y0
