(RS-274 Compatible G-code generated for UCCNC controller and Stepcraft 2 Mill)
(Created by in EagleCAD with the stepcraft.ulp 0.2.)
(File: "CD_Cap_brd.brd" created on: 6/29/2016 12:34 PM)
(Use a 1/32inch Bit)

G90 G94 G49
G21
G00 Z5
G00 X0Y0
S19500 M03
G04 P4000
G00 Z1.000
G00 X4.416Y16.510
G01 Z-0.150 F30
G03 F360
X4.416Y16.510 I-0.606
G01 Z-0.300 F30
G03 F360
X4.416Y16.510 I-0.606
G01 Z-0.450 F30
G03 F360
X4.416Y16.510 I-0.606
G01 Z-0.600 F30
G03 F360
X4.416Y16.510 I-0.606
G01 Z-0.750 F30
G03 F360
X4.416Y16.510 I-0.606
G01 Z-0.900 F30
G03 F360
X4.416Y16.510 I-0.606
G01 Z-1.050 F30
G03 F360
X4.416Y16.510 I-0.606
G01 Z-1.200 F30
G03 F360
X4.416Y16.510 I-0.606
G01 Z-1.350 F30
G03 F360
X4.416Y16.510 I-0.606
G01 Z-1.500 F30
G03 F360
X4.416Y16.510 I-0.606
G01 Z-1.600 F30
G03 F360
X4.416Y16.510 I-0.606
G00 Z1.000
G00 X4.416Y6.350
G01 Z-0.150 F30
G03 F360
X4.416Y6.350 I-0.606
G01 Z-0.300 F30
G03 F360
X4.416Y6.350 I-0.606
G01 Z-0.450 F30
G03 F360
X4.416Y6.350 I-0.606
G01 Z-0.600 F30
G03 F360
X4.416Y6.350 I-0.606
G01 Z-0.750 F30
G03 F360
X4.416Y6.350 I-0.606
G01 Z-0.900 F30
G03 F360
X4.416Y6.350 I-0.606
G01 Z-1.050 F30
G03 F360
X4.416Y6.350 I-0.606
G01 Z-1.200 F30
G03 F360
X4.416Y6.350 I-0.606
G01 Z-1.350 F30
G03 F360
X4.416Y6.350 I-0.606
G01 Z-1.500 F30
G03 F360
X4.416Y6.350 I-0.606
G01 Z-1.600 F30
G03 F360
X4.416Y6.350 I-0.606
G00 Z1.000
G00 X34.896Y34.290
G01 Z-0.150 F30
G03 F360
X34.896Y34.290 I-0.606
G01 Z-0.300 F30
G03 F360
X34.896Y34.290 I-0.606
G01 Z-0.450 F30
G03 F360
X34.896Y34.290 I-0.606
G01 Z-0.600 F30
G03 F360
X34.896Y34.290 I-0.606
G01 Z-0.750 F30
G03 F360
X34.896Y34.290 I-0.606
G01 Z-0.900 F30
G03 F360
X34.896Y34.290 I-0.606
G01 Z-1.050 F30
G03 F360
X34.896Y34.290 I-0.606
G01 Z-1.200 F30
G03 F360
X34.896Y34.290 I-0.606
G01 Z-1.350 F30
G03 F360
X34.896Y34.290 I-0.606
G01 Z-1.500 F30
G03 F360
X34.896Y34.290 I-0.606
G01 Z-1.600 F30
G03 F360
X34.896Y34.290 I-0.606
G00 Z1.000
G00 X34.896Y24.130
G01 Z-0.150 F30
G03 F360
X34.896Y24.130 I-0.606
G01 Z-0.300 F30
G03 F360
X34.896Y24.130 I-0.606
G01 Z-0.450 F30
G03 F360
X34.896Y24.130 I-0.606
G01 Z-0.600 F30
G03 F360
X34.896Y24.130 I-0.606
G01 Z-0.750 F30
G03 F360
X34.896Y24.130 I-0.606
G01 Z-0.900 F30
G03 F360
X34.896Y24.130 I-0.606
G01 Z-1.050 F30
G03 F360
X34.896Y24.130 I-0.606
G01 Z-1.200 F30
G03 F360
X34.896Y24.130 I-0.606
G01 Z-1.350 F30
G03 F360
X34.896Y24.130 I-0.606
G01 Z-1.500 F30
G03 F360
X34.896Y24.130 I-0.606
G01 Z-1.600 F30
G03 F360
X34.896Y24.130 I-0.606
G00 Z1.000
G00 X65.376Y15.240
G01 Z-0.150 F30
G03 F360
X65.376Y15.240 I-0.606
G01 Z-0.300 F30
G03 F360
X65.376Y15.240 I-0.606
G01 Z-0.450 F30
G03 F360
X65.376Y15.240 I-0.606
G01 Z-0.600 F30
G03 F360
X65.376Y15.240 I-0.606
G01 Z-0.750 F30
G03 F360
X65.376Y15.240 I-0.606
G01 Z-0.900 F30
G03 F360
X65.376Y15.240 I-0.606
G01 Z-1.050 F30
G03 F360
X65.376Y15.240 I-0.606
G01 Z-1.200 F30
G03 F360
X65.376Y15.240 I-0.606
G01 Z-1.350 F30
G03 F360
X65.376Y15.240 I-0.606
G01 Z-1.500 F30
G03 F360
X65.376Y15.240 I-0.606
G01 Z-1.600 F30
G03 F360
X65.376Y15.240 I-0.606
G00 Z1.000
G00 X65.376Y5.080
G01 Z-0.150 F30
G03 F360
X65.376Y5.080 I-0.606
G01 Z-0.300 F30
G03 F360
X65.376Y5.080 I-0.606
G01 Z-0.450 F30
G03 F360
X65.376Y5.080 I-0.606
G01 Z-0.600 F30
G03 F360
X65.376Y5.080 I-0.606
G01 Z-0.750 F30
G03 F360
X65.376Y5.080 I-0.606
G01 Z-0.900 F30
G03 F360
X65.376Y5.080 I-0.606
G01 Z-1.050 F30
G03 F360
X65.376Y5.080 I-0.606
G01 Z-1.200 F30
G03 F360
X65.376Y5.080 I-0.606
G01 Z-1.350 F30
G03 F360
X65.376Y5.080 I-0.606
G01 Z-1.500 F30
G03 F360
X65.376Y5.080 I-0.606
G01 Z-1.600 F30
G03 F360
X65.376Y5.080 I-0.606
G00 Z1.000
G00 X100.441Y32.385
G01 Z-0.150 F30
G03 F360
X100.441Y32.385 I-0.111
G01 Z-0.300 F30
G03 F360
X100.441Y32.385 I-0.111
G01 Z-0.450 F30
G03 F360
X100.441Y32.385 I-0.111
G01 Z-0.600 F30
G03 F360
X100.441Y32.385 I-0.111
G01 Z-0.750 F30
G03 F360
X100.441Y32.385 I-0.111
G01 Z-0.900 F30
G03 F360
X100.441Y32.385 I-0.111
G01 Z-1.050 F30
G03 F360
X100.441Y32.385 I-0.111
G01 Z-1.200 F30
G03 F360
X100.441Y32.385 I-0.111
G01 Z-1.350 F30
G03 F360
X100.441Y32.385 I-0.111
G01 Z-1.500 F30
G03 F360
X100.441Y32.385 I-0.111
G01 Z-1.600 F30
G03 F360
X100.441Y32.385 I-0.111
G00 Z1.000
G00 X102.981Y32.385
G01 Z-0.150 F30
G03 F360
X102.981Y32.385 I-0.111
G01 Z-0.300 F30
G03 F360
X102.981Y32.385 I-0.111
G01 Z-0.450 F30
G03 F360
X102.981Y32.385 I-0.111
G01 Z-0.600 F30
G03 F360
X102.981Y32.385 I-0.111
G01 Z-0.750 F30
G03 F360
X102.981Y32.385 I-0.111
G01 Z-0.900 F30
G03 F360
X102.981Y32.385 I-0.111
G01 Z-1.050 F30
G03 F360
X102.981Y32.385 I-0.111
G01 Z-1.200 F30
G03 F360
X102.981Y32.385 I-0.111
G01 Z-1.350 F30
G03 F360
X102.981Y32.385 I-0.111
G01 Z-1.500 F30
G03 F360
X102.981Y32.385 I-0.111
G01 Z-1.600 F30
G03 F360
X102.981Y32.385 I-0.111
G00 Z1.000
G00 X105.521Y32.385
G01 Z-0.150 F30
G03 F360
X105.521Y32.385 I-0.111
G01 Z-0.300 F30
G03 F360
X105.521Y32.385 I-0.111
G01 Z-0.450 F30
G03 F360
X105.521Y32.385 I-0.111
G01 Z-0.600 F30
G03 F360
X105.521Y32.385 I-0.111
G01 Z-0.750 F30
G03 F360
X105.521Y32.385 I-0.111
G01 Z-0.900 F30
G03 F360
X105.521Y32.385 I-0.111
G01 Z-1.050 F30
G03 F360
X105.521Y32.385 I-0.111
G01 Z-1.200 F30
G03 F360
X105.521Y32.385 I-0.111
G01 Z-1.350 F30
G03 F360
X105.521Y32.385 I-0.111
G01 Z-1.500 F30
G03 F360
X105.521Y32.385 I-0.111
G01 Z-1.600 F30
G03 F360
X105.521Y32.385 I-0.111
G00 Z1.000
G00 X100.441Y5.715
G01 Z-0.150 F30
G03 F360
X100.441Y5.715 I-0.111
G01 Z-0.300 F30
G03 F360
X100.441Y5.715 I-0.111
G01 Z-0.450 F30
G03 F360
X100.441Y5.715 I-0.111
G01 Z-0.600 F30
G03 F360
X100.441Y5.715 I-0.111
G01 Z-0.750 F30
G03 F360
X100.441Y5.715 I-0.111
G01 Z-0.900 F30
G03 F360
X100.441Y5.715 I-0.111
G01 Z-1.050 F30
G03 F360
X100.441Y5.715 I-0.111
G01 Z-1.200 F30
G03 F360
X100.441Y5.715 I-0.111
G01 Z-1.350 F30
G03 F360
X100.441Y5.715 I-0.111
G01 Z-1.500 F30
G03 F360
X100.441Y5.715 I-0.111
G01 Z-1.600 F30
G03 F360
X100.441Y5.715 I-0.111
G00 Z1.000
G00 X102.981Y5.715
G01 Z-0.150 F30
G03 F360
X102.981Y5.715 I-0.111
G01 Z-0.300 F30
G03 F360
X102.981Y5.715 I-0.111
G01 Z-0.450 F30
G03 F360
X102.981Y5.715 I-0.111
G01 Z-0.600 F30
G03 F360
X102.981Y5.715 I-0.111
G01 Z-0.750 F30
G03 F360
X102.981Y5.715 I-0.111
G01 Z-0.900 F30
G03 F360
X102.981Y5.715 I-0.111
G01 Z-1.050 F30
G03 F360
X102.981Y5.715 I-0.111
G01 Z-1.200 F30
G03 F360
X102.981Y5.715 I-0.111
G01 Z-1.350 F30
G03 F360
X102.981Y5.715 I-0.111
G01 Z-1.500 F30
G03 F360
X102.981Y5.715 I-0.111
G01 Z-1.600 F30
G03 F360
X102.981Y5.715 I-0.111
G00 Z1.000
G00 X105.521Y5.715
G01 Z-0.150 F30
G03 F360
X105.521Y5.715 I-0.111
G01 Z-0.300 F30
G03 F360
X105.521Y5.715 I-0.111
G01 Z-0.450 F30
G03 F360
X105.521Y5.715 I-0.111
G01 Z-0.600 F30
G03 F360
X105.521Y5.715 I-0.111
G01 Z-0.750 F30
G03 F360
X105.521Y5.715 I-0.111
G01 Z-0.900 F30
G03 F360
X105.521Y5.715 I-0.111
G01 Z-1.050 F30
G03 F360
X105.521Y5.715 I-0.111
G01 Z-1.200 F30
G03 F360
X105.521Y5.715 I-0.111
G01 Z-1.350 F30
G03 F360
X105.521Y5.715 I-0.111
G01 Z-1.500 F30
G03 F360
X105.521Y5.715 I-0.111
G01 Z-1.600 F30
G03 F360
X105.521Y5.715 I-0.111
G00 Z1.000
G00 X45.958Y13.970
G01 Z-0.150 F30
G03 F360
X45.958Y13.970 I-0.111
G01 Z-0.300 F30
G03 F360
X45.958Y13.970 I-0.111
G01 Z-0.450 F30
G03 F360
X45.958Y13.970 I-0.111
G01 Z-0.600 F30
G03 F360
X45.958Y13.970 I-0.111
G01 Z-0.750 F30
G03 F360
X45.958Y13.970 I-0.111
G01 Z-0.900 F30
G03 F360
X45.958Y13.970 I-0.111
G01 Z-1.050 F30
G03 F360
X45.958Y13.970 I-0.111
G01 Z-1.200 F30
G03 F360
X45.958Y13.970 I-0.111
G01 Z-1.350 F30
G03 F360
X45.958Y13.970 I-0.111
G01 Z-1.500 F30
G03 F360
X45.958Y13.970 I-0.111
G01 Z-1.600 F30
G03 F360
X45.958Y13.970 I-0.111
G00 Z1.000
G00 X45.704Y11.430
G01 Z-0.150 F30
G03 F360
X45.704Y11.430 I-0.111
G01 Z-0.300 F30
G03 F360
X45.704Y11.430 I-0.111
G01 Z-0.450 F30
G03 F360
X45.704Y11.430 I-0.111
G01 Z-0.600 F30
G03 F360
X45.704Y11.430 I-0.111
G01 Z-0.750 F30
G03 F360
X45.704Y11.430 I-0.111
G01 Z-0.900 F30
G03 F360
X45.704Y11.430 I-0.111
G01 Z-1.050 F30
G03 F360
X45.704Y11.430 I-0.111
G01 Z-1.200 F30
G03 F360
X45.704Y11.430 I-0.111
G01 Z-1.350 F30
G03 F360
X45.704Y11.430 I-0.111
G01 Z-1.500 F30
G03 F360
X45.704Y11.430 I-0.111
G01 Z-1.600 F30
G03 F360
X45.704Y11.430 I-0.111
G00 Z1.000
G00 X45.958Y8.890
G01 Z-0.150 F30
G03 F360
X45.958Y8.890 I-0.111
G01 Z-0.300 F30
G03 F360
X45.958Y8.890 I-0.111
G01 Z-0.450 F30
G03 F360
X45.958Y8.890 I-0.111
G01 Z-0.600 F30
G03 F360
X45.958Y8.890 I-0.111
G01 Z-0.750 F30
G03 F360
X45.958Y8.890 I-0.111
G01 Z-0.900 F30
G03 F360
X45.958Y8.890 I-0.111
G01 Z-1.050 F30
G03 F360
X45.958Y8.890 I-0.111
G01 Z-1.200 F30
G03 F360
X45.958Y8.890 I-0.111
G01 Z-1.350 F30
G03 F360
X45.958Y8.890 I-0.111
G01 Z-1.500 F30
G03 F360
X45.958Y8.890 I-0.111
G01 Z-1.600 F30
G03 F360
X45.958Y8.890 I-0.111
G00 Z1.000
G00 X22.844Y8.890
G01 Z-0.150 F30
G03 F360
X22.844Y8.890 I-0.111
G01 Z-0.300 F30
G03 F360
X22.844Y8.890 I-0.111
G01 Z-0.450 F30
G03 F360
X22.844Y8.890 I-0.111
G01 Z-0.600 F30
G03 F360
X22.844Y8.890 I-0.111
G01 Z-0.750 F30
G03 F360
X22.844Y8.890 I-0.111
G01 Z-0.900 F30
G03 F360
X22.844Y8.890 I-0.111
G01 Z-1.050 F30
G03 F360
X22.844Y8.890 I-0.111
G01 Z-1.200 F30
G03 F360
X22.844Y8.890 I-0.111
G01 Z-1.350 F30
G03 F360
X22.844Y8.890 I-0.111
G01 Z-1.500 F30
G03 F360
X22.844Y8.890 I-0.111
G01 Z-1.600 F30
G03 F360
X22.844Y8.890 I-0.111
G00 Z1.000
G00 X23.098Y11.430
G01 Z-0.150 F30
G03 F360
X23.098Y11.430 I-0.111
G01 Z-0.300 F30
G03 F360
X23.098Y11.430 I-0.111
G01 Z-0.450 F30
G03 F360
X23.098Y11.430 I-0.111
G01 Z-0.600 F30
G03 F360
X23.098Y11.430 I-0.111
G01 Z-0.750 F30
G03 F360
X23.098Y11.430 I-0.111
G01 Z-0.900 F30
G03 F360
X23.098Y11.430 I-0.111
G01 Z-1.050 F30
G03 F360
X23.098Y11.430 I-0.111
G01 Z-1.200 F30
G03 F360
X23.098Y11.430 I-0.111
G01 Z-1.350 F30
G03 F360
X23.098Y11.430 I-0.111
G01 Z-1.500 F30
G03 F360
X23.098Y11.430 I-0.111
G01 Z-1.600 F30
G03 F360
X23.098Y11.430 I-0.111
G00 Z1.000
G00 X22.844Y13.970
G01 Z-0.150 F30
G03 F360
X22.844Y13.970 I-0.111
G01 Z-0.300 F30
G03 F360
X22.844Y13.970 I-0.111
G01 Z-0.450 F30
G03 F360
X22.844Y13.970 I-0.111
G01 Z-0.600 F30
G03 F360
X22.844Y13.970 I-0.111
G01 Z-0.750 F30
G03 F360
X22.844Y13.970 I-0.111
G01 Z-0.900 F30
G03 F360
X22.844Y13.970 I-0.111
G01 Z-1.050 F30
G03 F360
X22.844Y13.970 I-0.111
G01 Z-1.200 F30
G03 F360
X22.844Y13.970 I-0.111
G01 Z-1.350 F30
G03 F360
X22.844Y13.970 I-0.111
G01 Z-1.500 F30
G03 F360
X22.844Y13.970 I-0.111
G01 Z-1.600 F30
G03 F360
X22.844Y13.970 I-0.111
G00 Z1.000
G00 X91.043Y31.750
G01 Z-0.150 F30
G03 F360
X91.043Y31.750 I-2.143
G01 Z-0.300 F30
G03 F360
X91.043Y31.750 I-2.143
G01 Z-0.450 F30
G03 F360
X91.043Y31.750 I-2.143
G01 Z-0.600 F30
G03 F360
X91.043Y31.750 I-2.143
G01 Z-0.750 F30
G03 F360
X91.043Y31.750 I-2.143
G01 Z-0.900 F30
G03 F360
X91.043Y31.750 I-2.143
G01 Z-1.050 F30
G03 F360
X91.043Y31.750 I-2.143
G01 Z-1.200 F30
G03 F360
X91.043Y31.750 I-2.143
G01 Z-1.350 F30
G03 F360
X91.043Y31.750 I-2.143
G01 Z-1.500 F30
G03 F360
X91.043Y31.750 I-2.143
G01 Z-1.600 F30
G03 F360
X91.043Y31.750 I-2.143
G00 Z1.000
G00 X91.043Y6.350
G01 Z-0.150 F30
G03 F360
X91.043Y6.350 I-2.143
G01 Z-0.300 F30
G03 F360
X91.043Y6.350 I-2.143
G01 Z-0.450 F30
G03 F360
X91.043Y6.350 I-2.143
G01 Z-0.600 F30
G03 F360
X91.043Y6.350 I-2.143
G01 Z-0.750 F30
G03 F360
X91.043Y6.350 I-2.143
G01 Z-0.900 F30
G03 F360
X91.043Y6.350 I-2.143
G01 Z-1.050 F30
G03 F360
X91.043Y6.350 I-2.143
G01 Z-1.200 F30
G03 F360
X91.043Y6.350 I-2.143
G01 Z-1.350 F30
G03 F360
X91.043Y6.350 I-2.143
G01 Z-1.500 F30
G03 F360
X91.043Y6.350 I-2.143
G01 Z-1.600 F30
G03 F360
X91.043Y6.350 I-2.143
G00 Z1.000
G00 X122.793Y31.750
G01 Z-0.150 F30
G03 F360
X122.793Y31.750 I-2.143
G01 Z-0.300 F30
G03 F360
X122.793Y31.750 I-2.143
G01 Z-0.450 F30
G03 F360
X122.793Y31.750 I-2.143
G01 Z-0.600 F30
G03 F360
X122.793Y31.750 I-2.143
G01 Z-0.750 F30
G03 F360
X122.793Y31.750 I-2.143
G01 Z-0.900 F30
G03 F360
X122.793Y31.750 I-2.143
G01 Z-1.050 F30
G03 F360
X122.793Y31.750 I-2.143
G01 Z-1.200 F30
G03 F360
X122.793Y31.750 I-2.143
G01 Z-1.350 F30
G03 F360
X122.793Y31.750 I-2.143
G01 Z-1.500 F30
G03 F360
X122.793Y31.750 I-2.143
G01 Z-1.600 F30
G03 F360
X122.793Y31.750 I-2.143
G00 Z1.000
G00 X122.793Y6.350
G01 Z-0.150 F30
G03 F360
X122.793Y6.350 I-2.143
G01 Z-0.300 F30
G03 F360
X122.793Y6.350 I-2.143
G01 Z-0.450 F30
G03 F360
X122.793Y6.350 I-2.143
G01 Z-0.600 F30
G03 F360
X122.793Y6.350 I-2.143
G01 Z-0.750 F30
G03 F360
X122.793Y6.350 I-2.143
G01 Z-0.900 F30
G03 F360
X122.793Y6.350 I-2.143
G01 Z-1.050 F30
G03 F360
X122.793Y6.350 I-2.143
G01 Z-1.200 F30
G03 F360
X122.793Y6.350 I-2.143
G01 Z-1.350 F30
G03 F360
X122.793Y6.350 I-2.143
G01 Z-1.500 F30
G03 F360
X122.793Y6.350 I-2.143
G01 Z-1.600 F30
G03 F360
X122.793Y6.350 I-2.143
G00 Z1.000
G00 X97.520Y24.130
G01 Z-0.150 F30
G03 F360
X97.520Y24.130 I-0.048
G01 Z-0.300 F30
G03 F360
X97.520Y24.130 I-0.048
G01 Z-0.450 F30
G03 F360
X97.520Y24.130 I-0.048
G01 Z-0.600 F30
G03 F360
X97.520Y24.130 I-0.048
G01 Z-0.750 F30
G03 F360
X97.520Y24.130 I-0.048
G01 Z-0.900 F30
G03 F360
X97.520Y24.130 I-0.048
G01 Z-1.050 F30
G03 F360
X97.520Y24.130 I-0.048
G01 Z-1.200 F30
G03 F360
X97.520Y24.130 I-0.048
G01 Z-1.350 F30
G03 F360
X97.520Y24.130 I-0.048
G01 Z-1.500 F30
G03 F360
X97.520Y24.130 I-0.048
G01 Z-1.600 F30
G03 F360
X97.520Y24.130 I-0.048
G00 Z1.000
G00 X99.743Y24.130
G01 Z-0.150 F30
G03 F360
X99.743Y24.130 I-0.048
G01 Z-0.300 F30
G03 F360
X99.743Y24.130 I-0.048
G01 Z-0.450 F30
G03 F360
X99.743Y24.130 I-0.048
G01 Z-0.600 F30
G03 F360
X99.743Y24.130 I-0.048
G01 Z-0.750 F30
G03 F360
X99.743Y24.130 I-0.048
G01 Z-0.900 F30
G03 F360
X99.743Y24.130 I-0.048
G01 Z-1.050 F30
G03 F360
X99.743Y24.130 I-0.048
G01 Z-1.200 F30
G03 F360
X99.743Y24.130 I-0.048
G01 Z-1.350 F30
G03 F360
X99.743Y24.130 I-0.048
G01 Z-1.500 F30
G03 F360
X99.743Y24.130 I-0.048
G01 Z-1.600 F30
G03 F360
X99.743Y24.130 I-0.048
G00 Z1.000
G00 X98.155Y7.938
G01 Z-0.150 F30
G03 F360
X98.155Y7.938 I-0.048
G01 Z-0.300 F30
G03 F360
X98.155Y7.938 I-0.048
G01 Z-0.450 F30
G03 F360
X98.155Y7.938 I-0.048
G01 Z-0.600 F30
G03 F360
X98.155Y7.938 I-0.048
G01 Z-0.750 F30
G03 F360
X98.155Y7.938 I-0.048
G01 Z-0.900 F30
G03 F360
X98.155Y7.938 I-0.048
G01 Z-1.050 F30
G03 F360
X98.155Y7.938 I-0.048
G01 Z-1.200 F30
G03 F360
X98.155Y7.938 I-0.048
G01 Z-1.350 F30
G03 F360
X98.155Y7.938 I-0.048
G01 Z-1.500 F30
G03 F360
X98.155Y7.938 I-0.048
G01 Z-1.600 F30
G03 F360
X98.155Y7.938 I-0.048
(-->HOLE IS TOO SMALL, I CAN'T CUT THAT!!)
G00 Z1.000
G00 X101.503Y19.050
G01 Z-0.150 F30
G03 F360
X101.503Y19.050 I0.000
(-->HOLE IS TOO SMALL, I CAN'T CUT THAT!!)
G01 Z-0.300 F30
G03 F360
X101.503Y19.050 I0.000
(-->HOLE IS TOO SMALL, I CAN'T CUT THAT!!)
G01 Z-0.450 F30
G03 F360
X101.503Y19.050 I0.000
(-->HOLE IS TOO SMALL, I CAN'T CUT THAT!!)
G01 Z-0.600 F30
G03 F360
X101.503Y19.050 I0.000
(-->HOLE IS TOO SMALL, I CAN'T CUT THAT!!)
G01 Z-0.750 F30
G03 F360
X101.503Y19.050 I0.000
(-->HOLE IS TOO SMALL, I CAN'T CUT THAT!!)
G01 Z-0.900 F30
G03 F360
X101.503Y19.050 I0.000
(-->HOLE IS TOO SMALL, I CAN'T CUT THAT!!)
G01 Z-1.050 F30
G03 F360
X101.503Y19.050 I0.000
(-->HOLE IS TOO SMALL, I CAN'T CUT THAT!!)
G01 Z-1.200 F30
G03 F360
X101.503Y19.050 I0.000
(-->HOLE IS TOO SMALL, I CAN'T CUT THAT!!)
G01 Z-1.350 F30
G03 F360
X101.503Y19.050 I0.000
(-->HOLE IS TOO SMALL, I CAN'T CUT THAT!!)
G01 Z-1.500 F30
G03 F360
X101.503Y19.050 I0.000
(-->HOLE IS TOO SMALL, I CAN'T CUT THAT!!)
G01 Z-1.600 F30
G03 F360
X101.503Y19.050 I0.000
G00 Z1.000
M05
G04 P4000
G00 X0Y0
