(RS-274 Compatible G-code generated for UCCNC controller and Stepcraft 2 Mill)
(Created by in EagleCAD with the stepcraft.ulp 0.2.)
(File: was created on: 6/29/2016 12:34 PM)
SHRINK_WIDTH: 0.070000

G90 G94 G49
G00 Z5.000
G00 X101.035 Y14.764 F1500
G00 Z0.000 F500
G01 X101.035 Y14.764 F1500
G01 X101.035 Y16.986 F1500
G01 X97.085 Y16.986 F1500
G01 X97.085 Y14.764 F1500
G01 X101.035 Y14.764 F1500
G00 Z1.000 F500
G00 X101.035 Y14.764 F1500
G00 Z0.000 F500
G01 X101.035 Y14.764 F1500
G01 X101.035 Y16.986 F1500
G01 X97.085 Y16.986 F1500
G01 X97.085 Y14.764 F1500
G01 X101.035 Y14.764 F1500
G00 Z1.000 F500

G00 X115.005 Y7.550 F1500
G00 Z0.000 F500
G01 X115.005 Y7.550 F1500
G01 X115.005 Y19.120 F1500
G01 X105.975 Y19.120 F1500
G01 X105.975 Y7.550 F1500
G01 X115.005 Y7.550 F1500
G00 Z1.000 F500
G00 X115.005 Y7.550 F1500
G00 Z0.000 F500
G01 X115.005 Y7.550 F1500
G01 X115.005 Y19.120 F1500
G01 X105.975 Y19.120 F1500
G01 X105.975 Y7.550 F1500
G01 X115.005 Y7.550 F1500
G00 Z1.000 F500

G00 X101.035 Y9.684 F1500
G00 Z0.000 F500
G01 X101.035 Y9.684 F1500
G01 X101.035 Y11.906 F1500
G01 X97.085 Y11.906 F1500
G01 X97.085 Y9.684 F1500
G01 X101.035 Y9.684 F1500
G00 Z1.000 F500
G00 X101.035 Y9.684 F1500
G00 Z0.000 F500
G01 X101.035 Y9.684 F1500
G01 X101.035 Y11.906 F1500
G01 X97.085 Y11.906 F1500
G01 X97.085 Y9.684 F1500
G01 X101.035 Y9.684 F1500
G00 Z1.000 F500

G00 X101.035 Y26.194 F1500
G00 Z0.000 F500
G01 X101.035 Y26.194 F1500
G01 X101.035 Y28.416 F1500
G01 X97.085 Y28.416 F1500
G01 X97.085 Y26.194 F1500
G01 X101.035 Y26.194 F1500
G00 Z1.000 F500
G00 X101.035 Y26.194 F1500
G00 Z0.000 F500
G01 X101.035 Y26.194 F1500
G01 X101.035 Y28.416 F1500
G01 X97.085 Y28.416 F1500
G01 X97.085 Y26.194 F1500
G01 X101.035 Y26.194 F1500
G00 Z1.000 F500

G00 X115.005 Y18.980 F1500
G00 Z0.000 F500
G01 X115.005 Y18.980 F1500
G01 X115.005 Y30.550 F1500
G01 X105.975 Y30.550 F1500
G01 X105.975 Y18.980 F1500
G01 X115.005 Y18.980 F1500
G00 Z1.000 F500
G00 X115.005 Y18.980 F1500
G00 Z0.000 F500
G01 X115.005 Y18.980 F1500
G01 X115.005 Y30.550 F1500
G01 X105.975 Y30.550 F1500
G01 X105.975 Y18.980 F1500
G01 X115.005 Y18.980 F1500
G00 Z1.000 F500

G00 X101.035 Y21.114 F1500
G00 Z0.000 F500
G01 X101.035 Y21.114 F1500
G01 X101.035 Y23.336 F1500
G01 X97.085 Y23.336 F1500
G01 X97.085 Y21.114 F1500
G01 X101.035 Y21.114 F1500
G00 Z1.000 F500
G00 X101.035 Y21.114 F1500
G00 Z0.000 F500
G01 X101.035 Y21.114 F1500
G01 X101.035 Y23.336 F1500
G01 X97.085 Y23.336 F1500
G01 X97.085 Y21.114 F1500
G01 X101.035 Y21.114 F1500
G00 Z1.000 F500

G00 X98.360 Y33.275 F1500
G00 Z0.000 F500
G01 X98.360 Y33.275 F1500
G01 X98.360 Y34.365 F1500
G01 X97.220 Y34.365 F1500
G01 X97.220 Y33.275 F1500
G01 X98.360 Y33.275 F1500
G00 Z1.000 F500
G00 X98.360 Y33.275 F1500
G00 Z0.000 F500
G01 X98.360 Y33.275 F1500
G01 X98.360 Y34.365 F1500
G01 X97.220 Y34.365 F1500
G01 X97.220 Y33.275 F1500
G01 X98.360 Y33.275 F1500
G00 Z1.000 F500

G00 X98.360 Y31.675 F1500
G00 Z0.000 F500
G01 X98.360 Y31.675 F1500
G01 X98.360 Y32.765 F1500
G01 X97.220 Y32.765 F1500
G01 X97.220 Y31.675 F1500
G01 X98.360 Y31.675 F1500
G00 Z1.000 F500
G00 X98.360 Y31.675 F1500
G00 Z0.000 F500
G01 X98.360 Y31.675 F1500
G01 X98.360 Y32.765 F1500
G01 X97.220 Y32.765 F1500
G01 X97.220 Y31.675 F1500
G01 X98.360 Y31.675 F1500
G00 Z1.000 F500

G00 X99.950 Y17.845 F1500
G00 Z0.000 F500
G01 X99.950 Y17.845 F1500
G01 X101.040 Y17.845 F1500
G01 X101.040 Y18.985 F1500
G01 X99.950 Y18.985 F1500
G01 X99.950 Y17.845 F1500
G00 Z1.000 F500
G00 X99.950 Y17.845 F1500
G00 Z0.000 F500
G01 X99.950 Y17.845 F1500
G01 X101.040 Y17.845 F1500
G01 X101.040 Y18.985 F1500
G01 X99.950 Y18.985 F1500
G01 X99.950 Y17.845 F1500
G00 Z1.000 F500

G00 X98.350 Y17.845 F1500
G00 Z0.000 F500
G01 X98.350 Y17.845 F1500
G01 X99.440 Y17.845 F1500
G01 X99.440 Y18.985 F1500
G01 X98.350 Y18.985 F1500
G01 X98.350 Y17.845 F1500
G00 Z1.000 F500
G00 X98.350 Y17.845 F1500
G00 Z0.000 F500
G01 X98.350 Y17.845 F1500
G01 X99.440 Y17.845 F1500
G01 X99.440 Y18.985 F1500
G01 X98.350 Y18.985 F1500
G01 X98.350 Y17.845 F1500
G00 Z1.000 F500

G00 X99.440 Y30.415 F1500
G00 Z0.000 F500
G01 X99.440 Y30.415 F1500
G01 X98.350 Y30.415 F1500
G01 X98.350 Y29.275 F1500
G01 X99.440 Y29.275 F1500
G01 X99.440 Y30.415 F1500
G00 Z1.000 F500
G00 X99.440 Y30.415 F1500
G00 Z0.000 F500
G01 X99.440 Y30.415 F1500
G01 X98.350 Y30.415 F1500
G01 X98.350 Y29.275 F1500
G01 X99.440 Y29.275 F1500
G01 X99.440 Y30.415 F1500
G00 Z1.000 F500

G00 X101.040 Y30.415 F1500
G00 Z0.000 F500
G01 X101.040 Y30.415 F1500
G01 X99.950 Y30.415 F1500
G01 X99.950 Y29.275 F1500
G01 X101.040 Y29.275 F1500
G01 X101.040 Y30.415 F1500
G00 Z1.000 F500
G00 X101.040 Y30.415 F1500
G00 Z0.000 F500
G01 X101.040 Y30.415 F1500
G01 X99.950 Y30.415 F1500
G01 X99.950 Y29.275 F1500
G01 X101.040 Y29.275 F1500
G01 X101.040 Y30.415 F1500
G00 Z1.000 F500

G00 X101.855 Y7.685 F1500
G00 Z0.000 F500
G01 X101.855 Y7.685 F1500
G01 X102.945 Y7.685 F1500
G01 X102.945 Y8.825 F1500
G01 X101.855 Y8.825 F1500
G01 X101.855 Y7.685 F1500
G00 Z1.000 F500
G00 X101.855 Y7.685 F1500
G00 Z0.000 F500
G01 X101.855 Y7.685 F1500
G01 X102.945 Y7.685 F1500
G01 X102.945 Y8.825 F1500
G01 X101.855 Y8.825 F1500
G01 X101.855 Y7.685 F1500
G00 Z1.000 F500

G00 X100.255 Y7.685 F1500
G00 Z0.000 F500
G01 X100.255 Y7.685 F1500
G01 X101.345 Y7.685 F1500
G01 X101.345 Y8.825 F1500
G01 X100.255 Y8.825 F1500
G01 X100.255 Y7.685 F1500
G00 Z1.000 F500
G00 X100.255 Y7.685 F1500
G00 Z0.000 F500
G01 X100.255 Y7.685 F1500
G01 X101.345 Y7.685 F1500
G01 X101.345 Y8.825 F1500
G01 X100.255 Y8.825 F1500
G01 X100.255 Y7.685 F1500
G00 Z1.000 F500

G00 Z5.000
G00 X0Y0