(RS-274 Compatible G-code generated for UCCNC controller and Stepcraft 2 Mill)
(Created by in EagleCAD with the stepcraft.ulp 0.2.)
(File: "CD_CONTROL_BRD.brd" created on: 7/9/16 11:32 AM)
(Use a V Bit)

G90 G94 G49
G21
G00 Z5
G00 X0Y0
S19500 M03
G04 P4000
G00 Z1.000
G00 X65.385Y6.033
G01 Z-0.070 F500
G01 X61.575Y6.033 F1500
G00 Z1.000
G00 X65.385Y8.572
G01 Z-0.070 F500
G01 X59.670Y8.572 F1500
G00 Z1.000
G00 X65.385Y11.113
G01 Z-0.070 F500
G01 X58.717Y11.113 F1500
G00 Z1.000
G00 X65.385Y18.733
G01 Z-0.070 F500
G01 X61.575Y18.733 F1500
G00 Z1.000
G00 X65.385Y21.273
G01 Z-0.070 F500
G01 X61.575Y21.273 F1500
G00 Z1.000
G00 X65.385Y23.812
G01 Z-0.070 F500
G01 X61.575Y23.812 F1500
G00 Z1.000
G00 X65.385Y26.353
G01 Z-0.070 F500
G01 X61.575Y26.353 F1500
G00 Z1.000
G00 X65.385Y28.893
G01 Z-0.070 F500
G01 X61.575Y28.893 F1500
G00 Z1.000
G00 X65.385Y31.433
G01 Z-0.070 F500
G01 X61.575Y31.433 F1500
G00 Z1.000
G00 X65.385Y36.513
G01 Z-0.070 F500
G01 X61.575Y36.513 F1500
G00 Z1.000
G00 X65.385Y41.593
G01 Z-0.070 F500
G01 X59.035Y41.593 F1500
G00 Z1.000
G00 X65.385Y44.133
G01 Z-0.070 F500
G01 X59.035Y44.133 F1500
G00 Z1.000
G00 X65.385Y46.672
G01 Z-0.070 F500
G01 X61.575Y46.672 F1500
G00 Z1.000
G00 X61.575Y31.433
G01 Z-0.070 F500
G01 X61.575Y28.893 F1500
G01 X61.575Y21.273 F1500
G00 Z1.000
G00 X65.385Y8.572
G01 Z-0.070 F500
G01 X65.385Y16.192 F1500
G00 Z1.000
G00 X65.385Y18.733
G01 Z-0.070 F500
G01 X65.385Y44.133 F1500
G00 Z1.000
G00 X58.717Y11.113
G01 Z-0.070 F500
G01 X57.765Y10.160 F1500
G01 X57.765Y7.938 F1500
G01 X57.447Y7.620 F1500
G01 X54.907Y7.620 F1500
G01 X54.907Y4.128 F1500
G01 X58.717Y4.128 F1500
G01 X58.717Y6.985 F1500
G01 X59.670Y7.938 F1500
G01 X59.670Y8.572 F1500
G00 Z1.000
G00 X55.860Y7.938
G01 Z-0.070 F500
G01 X55.860Y13.335 F1500
G01 X56.177Y13.652 F1500
G01 X65.385Y13.652 F1500
G00 Z1.000
G00 X65.385Y16.192
G01 Z-0.070 F500
G01 X61.575Y16.192 F1500
G01 X53.320Y16.192 F1500
G00 Z1.000
G00 X12.362Y2.223
G01 Z-0.070 F500
G01 X10.775Y3.810 F1500
G01 X10.775Y8.572 F1500
G01 X11.092Y8.890 F1500
G00 Z1.000
G00 X29.190Y6.350
G01 Z-0.070 F500
G01 X23.157Y6.350 F1500
G00 Z1.000
G00 X29.190Y11.430
G01 Z-0.070 F500
G01 X25.697Y11.430 F1500
G00 Z1.000
G00 X30.777Y24.130
G01 Z-0.070 F500
G01 X26.332Y24.130 F1500
G01 X26.015Y24.130 F1500
G00 Z1.000
G00 X29.825Y26.670
G01 Z-0.070 F500
G01 X26.650Y26.670 F1500
G00 Z1.000
G00 X29.825Y29.210
G01 Z-0.070 F500
G01 X26.650Y29.210 F1500
G00 Z1.000
G00 X29.825Y31.750
G01 Z-0.070 F500
G01 X26.650Y31.750 F1500
G00 Z1.000
G00 X30.142Y34.290
G01 Z-0.070 F500
G01 X26.967Y34.290 F1500
G00 Z1.000
G00 X13.950Y3.810
G01 Z-0.070 F500
G01 X10.775Y3.810 F1500
G00 Z1.000
G00 X13.950Y6.350
G01 Z-0.070 F500
G01 X10.775Y6.350 F1500
G00 Z1.000
G00 X13.950Y8.890
G01 Z-0.070 F500
G01 X10.775Y8.890 F1500
G00 Z1.000
G00 X13.950Y11.430
G01 Z-0.070 F500
G01 X11.092Y11.430 F1500
G01 X9.505Y11.430 F1500
G00 Z1.000
G00 X13.950Y13.970
G01 Z-0.070 F500
G01 X11.092Y13.970 F1500
G00 Z1.000
G00 X13.950Y16.510
G01 Z-0.070 F500
G01 X10.775Y16.510 F1500
G00 Z1.000
G00 X13.950Y19.050
G01 Z-0.070 F500
G01 X10.775Y19.050 F1500
G00 Z1.000
G00 X13.950Y21.590
G01 Z-0.070 F500
G01 X10.775Y21.590 F1500
G00 Z1.000
G00 X13.950Y24.130
G01 Z-0.070 F500
G01 X10.775Y24.130 F1500
G00 Z1.000
G00 X13.950Y26.670
G01 Z-0.070 F500
G01 X10.775Y26.670 F1500
G00 Z1.000
G00 X13.950Y29.210
G01 Z-0.070 F500
G01 X10.775Y29.210 F1500
G00 Z1.000
G00 X13.950Y31.750
G01 Z-0.070 F500
G01 X10.775Y31.750 F1500
G00 Z1.000
G00 X8.552Y40.005
G01 Z-0.070 F500
G01 X4.107Y40.005 F1500
G00 Z1.000
G00 X7.600Y42.545
G01 Z-0.070 F500
G01 X4.107Y42.545 F1500
G00 Z1.000
G00 X7.282Y47.625
G01 Z-0.070 F500
G01 X4.107Y47.625 F1500
G00 Z1.000
G00 X59.035Y44.133
G01 Z-0.070 F500
G01 X59.035Y41.593 F1500
G00 Z1.000
G00 X59.035Y44.133
G01 Z-0.070 F500
G01 X57.130Y44.133 F1500
G01 X54.907Y46.355 F1500
G01 X45.065Y46.355 F1500
G01 X35.857Y37.148 F1500
G01 X35.857Y29.210 F1500
G01 X39.032Y29.210 F1500
G01 X39.032Y33.973 F1500
G01 X37.762Y33.973 F1500
G01 X37.762Y35.242 F1500
G01 X44.112Y41.593 F1500
G01 X59.035Y41.593 F1500
G00 Z1.000
G00 X65.385Y39.053
G01 Z-0.070 F500
G01 X55.542Y39.053 F1500
G01 X38.080Y21.590 F1500
G01 X26.015Y21.590 F1500
G00 Z1.000
G00 X30.777Y24.130
G01 Z-0.070 F500
G01 X35.857Y29.210 F1500
G00 Z1.000
G00 X26.015Y19.050
G01 Z-0.070 F500
G01 X38.080Y19.050 F1500
G01 X54.907Y35.878 F1500
G01 X60.940Y35.878 F1500
G01 X61.575Y36.513 F1500
G00 Z1.000
G00 X65.385Y33.973
G01 Z-0.070 F500
G01 X55.225Y33.973 F1500
G01 X37.762Y16.510 F1500
G01 X26.015Y16.510 F1500
G00 Z1.000
G00 X61.575Y31.433
G01 Z-0.070 F500
G01 X54.907Y31.433 F1500
G01 X37.445Y13.970 F1500
G01 X29.190Y13.970 F1500
G01 X26.015Y13.970 F1500
G00 Z1.000
G00 X26.015Y24.130
G01 Z-0.070 F500
G01 X26.015Y13.970 F1500
G00 Z1.000
G00 X29.190Y3.810
G01 Z-0.070 F500
G01 X29.190Y13.970 F1500
G00 Z1.000
G00 X23.157Y6.350
G01 Z-0.070 F500
G01 X21.887Y7.620 F1500
G01 X21.570Y7.620 F1500
G01 X19.665Y7.620 F1500
G01 X19.665Y4.445 F1500
G01 X20.300Y3.810 F1500
G01 X29.190Y3.810 F1500
G00 Z1.000
G00 X29.190Y8.890
G01 Z-0.070 F500
G01 X23.475Y8.890 F1500
G01 X21.570Y8.890 F1500
G01 X21.570Y7.620 F1500
G00 Z1.000
G00 X13.950Y6.350
G01 Z-0.070 F500
G01 X13.950Y3.810 F1500
G00 Z1.000
G00 X13.950Y8.890
G01 Z-0.070 F500
G01 X13.950Y11.430 F1500
G00 Z1.000
G00 X13.950Y13.970
G01 Z-0.070 F500
G01 X13.950Y24.130 F1500
G00 Z1.000
G00 X10.775Y16.510
G01 Z-0.070 F500
G01 X10.775Y24.130 F1500
G00 Z1.000
G00 X10.775Y29.210
G01 Z-0.070 F500
G01 X10.775Y25.400 F1500
G01 X10.775Y24.130 F1500
G00 Z1.000
G00 X13.950Y29.210
G01 Z-0.070 F500
G01 X13.950Y26.670 F1500
G01 X21.570Y26.670 F1500
G01 X21.570Y24.130 F1500
G01 X13.950Y24.130 F1500
G00 Z1.000
G00 X4.107Y42.545
G01 Z-0.070 F500
G01 X4.107Y40.005 F1500
G00 Z1.000
G00 X4.425Y30.480
G01 Z-0.070 F500
G01 X9.505Y25.400 F1500
G01 X10.775Y25.400 F1500
G00 Z1.000
G00 X14.267Y31.750
G01 Z-0.070 F500
G01 X14.267Y34.608 F1500
G01 X17.442Y37.782 F1500
G01 X19.982Y37.782 F1500
G01 X21.252Y39.053 F1500
G00 Z1.000
G00 X26.650Y26.670
G01 Z-0.070 F500
G01 X26.650Y33.973 F1500
G01 X26.967Y34.290 F1500
G00 Z1.000
G00 X30.142Y34.290
G01 Z-0.070 F500
G01 X30.142Y26.670 F1500
G00 Z1.000
G00 X19.665Y4.445
G01 Z-0.070 F500
G01 X17.760Y4.445 F1500
G01 X17.125Y5.080 F1500
G01 X17.125Y6.985 F1500
G01 X15.220Y8.890 F1500
G01 X13.950Y8.890 F1500
G00 Z1.000
G00 X9.505Y11.430
G01 Z-0.070 F500
G01 X9.187Y11.113 F1500
G01 X9.187Y1.588 F1500
G01 X10.140Y0.635 F1500
G01 X41.255Y0.635 F1500
G01 X54.272Y13.652 F1500
G01 X56.177Y13.652 F1500
G00 Z1.000
G00 X12.362Y2.223
G01 Z-0.070 F500
G01 X39.350Y2.223 F1500
G01 X53.320Y16.192 F1500
G00 Z1.000
G00 X61.575Y18.733
G01 Z-0.070 F500
G01 X61.575Y16.192 F1500
G00 Z1.000
G00 X61.575Y21.273
G01 Z-0.070 F500
G01 X54.590Y21.273 F1500
G01 X37.127Y3.810 F1500
G01 X29.190Y3.810 F1500
G00 Z1.000
G00 X29.190Y60.008
G01 Z-0.070 F500
G01 X29.190Y56.515 F1500
G01 X22.840Y56.515 F1500
G01 X22.840Y60.008 F1500
G01 X29.190Y60.008 F1500
G00 Z1.000
G00 X29.190Y56.515
G01 Z-0.070 F500
G01 X29.190Y51.435 F1500
G01 X27.285Y51.435 F1500
G01 X24.745Y53.975 F1500
G01 X22.840Y53.975 F1500
G01 X22.840Y56.515 F1500
G00 Z1.000
G00 X22.840Y53.975
G01 Z-0.070 F500
G01 X17.760Y53.975 F1500
G01 X16.490Y55.245 F1500
G01 X13.315Y55.245 F1500
G01 X13.315Y51.435 F1500
G01 X25.062Y51.435 F1500
G01 X27.285Y49.213 F1500
G01 X27.285Y41.275 F1500
G01 X21.887Y35.878 F1500
G00 Z1.000
G00 X25.697Y11.430
G01 Z-0.070 F500
G01 X24.745Y12.383 F1500
G01 X24.745Y33.973 F1500
G01 X31.412Y40.640 F1500
G01 X31.412Y60.960 F1500
G01 X29.507Y62.865 F1500
G01 X22.840Y62.865 F1500
G01 X21.570Y62.865 F1500
G01 X20.300Y64.135 F1500
G01 X20.300Y69.215 F1500
G01 X17.442Y69.215 F1500
G01 X17.442Y62.865 F1500
G01 X19.347Y60.960 F1500
G01 X21.887Y60.960 F1500
G01 X22.840Y60.008 F1500
G00 Z1.000
G00 X29.190Y51.435
G01 Z-0.070 F500
G01 X29.825Y50.800 F1500
G01 X29.825Y41.275 F1500
G01 X23.475Y34.925 F1500
G01 X23.475Y11.430 F1500
G01 X23.475Y8.890 F1500
G00 Z1.000
G00 X26.332Y24.130
G01 Z-0.070 F500
G01 X26.332Y26.353 F1500
G01 X26.650Y26.670 F1500
G00 Z1.000
G00 X30.460Y34.290
G01 Z-0.070 F500
G01 X30.460Y34.608 F1500
G01 X33.317Y37.465 F1500
G01 X33.317Y62.865 F1500
G01 X30.777Y65.405 F1500
G01 X26.650Y65.405 F1500
G01 X25.380Y66.675 F1500
G01 X25.380Y69.215 F1500
G01 X22.840Y69.215 F1500
G01 X22.840Y62.865 F1500
G00 Z1.000
G00 X4.107Y42.545
G01 Z-0.070 F500
G01 X4.107Y45.085 F1500
G01 X11.410Y45.085 F1500
G01 X12.045Y44.450 F1500
G00 Z1.000
G00 X21.887Y35.878
G01 Z-0.070 F500
G01 X21.887Y26.988 F1500
G01 X21.570Y26.670 F1500
G00 Z1.000
G00 X21.570Y24.130
G01 Z-0.070 F500
G01 X21.570Y16.192 F1500
G01 X19.347Y13.970 F1500
G01 X13.950Y13.970 F1500
G00 Z1.000
G00 X13.950Y11.430
G01 Z-0.070 F500
G01 X23.475Y11.430 F1500
G00 Z1.000
G00 X11.092Y11.430
G01 Z-0.070 F500
G01 X11.092Y13.970 F1500
G01 X9.822Y13.970 F1500
G01 X8.235Y15.558 F1500
G01 X8.235Y21.590 F1500
G01 X8.235Y23.812 F1500
G01 X2.202Y30.163 F1500
G00 Z1.000
G00 X8.235Y21.590
G01 Z-0.070 F500
G01 X4.425Y21.590 F1500
G01 X4.425Y1.588 F1500
G01 X9.187Y1.588 F1500
G00 Z1.000
G00 X10.775Y31.750
G01 Z-0.070 F500
G01 X10.140Y32.385 F1500
G01 X7.282Y32.385 F1500
G01 X7.282Y34.925 F1500
G01 X11.410Y34.925 F1500
G01 X14.902Y38.418 F1500
G00 Z1.000
G00 X4.425Y30.480
G01 Z-0.070 F500
G01 X4.425Y37.782 F1500
G01 X8.870Y37.782 F1500
G01 X11.410Y40.323 F1500
G01 X12.997Y40.323 F1500
G01 X12.997Y42.227 F1500
G01 X11.727Y42.227 F1500
G01 X11.092Y42.863 F1500
G01 X9.505Y42.863 F1500
G01 X9.505Y40.958 F1500
G01 X8.552Y40.005 F1500
G00 Z1.000
G00 X7.600Y42.545
G01 Z-0.070 F500
G01 X7.917Y42.863 F1500
G01 X9.187Y42.863 F1500
G00 Z1.000
G00 X2.202Y30.163
G01 Z-0.070 F500
G01 X2.202Y38.100 F1500
G01 X4.107Y40.005 F1500
G00 Z1.000
G00 X21.252Y39.053
G01 Z-0.070 F500
G01 X21.570Y39.053 F1500
