(RS-274 Compatible G-code generated for UCCNC controller and Stepcraft 2 Mill)
(Created by in EagleCAD with the stepcraft.ulp 0.2.)
(File: "CD_Cap_brd.brd" created on: 6/29/2016 12:34 PM)
(Use a 1/32inch Bit)

G90 G94 G49
G21
G00 Z5
G00 X0Y0
S19500 M03
G04 P4000
G00 Z1.000
G00 X74.612Y-0.953
G01 Z-0.050 F30
G01 X74.612Y10.478 F360
G01 X73.978Y11.113 F360
G01 X59.690Y11.113 F360
G01 X40.640Y30.163 F360
G01 X27.623Y30.163 F360
G01 X9.525Y12.065 F360
G01 X-0.953Y12.065 F360
G00 Z1.000
M05
G04 P4000
G00 X0Y0
