(RS-274 Compatible G-code generated for UCCNC controller and Stepcraft 2 Mill)
(Created by in EagleCAD with the stepcraft.ulp 0.2.)
(File: "CD_Cap_brd.brd" created on: 6/29/2016 12:34 PM)
(Use a 1/32inch Bit)

G90 G94 G49
G21
G00 Z5
G00 X0Y0
S19500 M03
G04 P4000
G00 Z1.000
G00 X0.000Y0.000
G01 Z-0.150 F30
G01 X127.000Y0.000 F360
G00 Z1.000
G00 X127.000Y38.100
G01 Z-0.150 F30
G01 X0.000Y38.100 F360
G01 X0.000Y0.000 F360
G00 Z1.000
G00 X127.000Y38.100
G01 Z-0.150 F30
G01 X127.000Y0.000 F360
G00 Z1.000
G00 X0.000Y0.000
G01 Z-0.300 F30
G01 X127.000Y0.000 F360
G00 Z1.000
G00 X127.000Y38.100
G01 Z-0.300 F30
G01 X0.000Y38.100 F360
G01 X0.000Y0.000 F360
G00 Z1.000
G00 X127.000Y38.100
G01 Z-0.300 F30
G01 X127.000Y0.000 F360
G00 Z1.000
G00 X0.000Y0.000
G01 Z-0.450 F30
G01 X127.000Y0.000 F360
G00 Z1.000
G00 X127.000Y38.100
G01 Z-0.450 F30
G01 X0.000Y38.100 F360
G01 X0.000Y0.000 F360
G00 Z1.000
G00 X127.000Y38.100
G01 Z-0.450 F30
G01 X127.000Y0.000 F360
G00 Z1.000
G00 X0.000Y0.000
G01 Z-0.600 F30
G01 X127.000Y0.000 F360
G00 Z1.000
G00 X127.000Y38.100
G01 Z-0.600 F30
G01 X0.000Y38.100 F360
G01 X0.000Y0.000 F360
G00 Z1.000
G00 X127.000Y38.100
G01 Z-0.600 F30
G01 X127.000Y0.000 F360
G00 Z1.000
G00 X0.000Y0.000
G01 Z-0.750 F30
G01 X127.000Y0.000 F360
G00 Z1.000
G00 X127.000Y38.100
G01 Z-0.750 F30
G01 X0.000Y38.100 F360
G01 X0.000Y0.000 F360
G00 Z1.000
G00 X127.000Y38.100
G01 Z-0.750 F30
G01 X127.000Y0.000 F360
G00 Z1.000
G00 X0.000Y0.000
G01 Z-0.900 F30
G01 X127.000Y0.000 F360
G00 Z1.000
G00 X127.000Y38.100
G01 Z-0.900 F30
G01 X0.000Y38.100 F360
G01 X0.000Y0.000 F360
G00 Z1.000
G00 X127.000Y38.100
G01 Z-0.900 F30
G01 X127.000Y0.000 F360
G00 Z1.000
G00 X0.000Y0.000
G01 Z-1.050 F30
G01 X127.000Y0.000 F360
G00 Z1.000
G00 X127.000Y38.100
G01 Z-1.050 F30
G01 X0.000Y38.100 F360
G01 X0.000Y0.000 F360
G00 Z1.000
G00 X127.000Y38.100
G01 Z-1.050 F30
G01 X127.000Y0.000 F360
G00 Z1.000
G00 X0.000Y0.000
G01 Z-1.200 F30
G01 X127.000Y0.000 F360
G00 Z1.000
G00 X127.000Y38.100
G01 Z-1.200 F30
G01 X0.000Y38.100 F360
G01 X0.000Y0.000 F360
G00 Z1.000
G00 X127.000Y38.100
G01 Z-1.200 F30
G01 X127.000Y0.000 F360
G00 Z1.000
G00 X0.000Y0.000
G01 Z-1.350 F30
G01 X127.000Y0.000 F360
G00 Z1.000
G00 X127.000Y38.100
G01 Z-1.350 F30
G01 X0.000Y38.100 F360
G01 X0.000Y0.000 F360
G00 Z1.000
G00 X127.000Y38.100
G01 Z-1.350 F30
G01 X127.000Y0.000 F360
G00 Z1.000
G00 X0.000Y0.000
G01 Z-1.500 F30
G01 X127.000Y0.000 F360
G00 Z1.000
G00 X127.000Y38.100
G01 Z-1.500 F30
G01 X0.000Y38.100 F360
G01 X0.000Y0.000 F360
G00 Z1.000
G00 X127.000Y38.100
G01 Z-1.500 F30
G01 X127.000Y0.000 F360
G00 Z1.000
G00 X0.000Y0.000
G01 Z-1.600 F30
G01 X127.000Y0.000 F360
G00 Z1.000
G00 X127.000Y38.100
G01 Z-1.600 F30
G01 X0.000Y38.100 F360
G01 X0.000Y0.000 F360
G00 Z1.000
G00 X127.000Y38.100
G01 Z-1.600 F30
G01 X127.000Y0.000 F360
G00 Z1.000
M05
G04 P4000
G00 X0Y0
