(RS-274 Compatible G-code generated for UCCNC controller and Stepcraft 2 Mill)
(Created by in EagleCAD with the stepcraft.ulp 0.2.)
(File: "CD_CONTROL_BRD.brd" created on: 7/9/16 11:26 AM)
(Use a 1/32inch Bit)

G90 G94 G49
G21
G00 Z5
G00 X0Y0
S19500 M03
G04 P4000
G00 Z1.000
G00 X67.290Y0.000
G01 Z-0.150 F30
G01 X-0.000Y0.000 F360
G01 X-0.000Y80.315 F360
G01 X67.290Y80.315 F360
G01 X67.290Y0.000 F360
G01 Z-0.300 F30
G01 X-0.000Y0.000 F360
G01 X-0.000Y80.315 F360
G01 X67.290Y80.315 F360
G01 X67.290Y0.000 F360
G01 Z-0.450 F30
G01 X-0.000Y0.000 F360
G01 X-0.000Y80.315 F360
G01 X67.290Y80.315 F360
G01 X67.290Y0.000 F360
G01 Z-0.600 F30
G01 X-0.000Y0.000 F360
G01 X-0.000Y80.315 F360
G01 X67.290Y80.315 F360
G01 X67.290Y0.000 F360
G01 Z-0.750 F30
G01 X-0.000Y0.000 F360
G01 X-0.000Y80.315 F360
G01 X67.290Y80.315 F360
G01 X67.290Y0.000 F360
G01 Z-0.900 F30
G01 X-0.000Y0.000 F360
G01 X-0.000Y80.315 F360
G01 X67.290Y80.315 F360
G01 X67.290Y0.000 F360
G01 Z-1.050 F30
G01 X-0.000Y0.000 F360
G01 X-0.000Y80.315 F360
G01 X67.290Y80.315 F360
G01 X67.290Y0.000 F360
G01 Z-1.200 F30
G01 X-0.000Y0.000 F360
G01 X-0.000Y80.315 F360
G01 X67.290Y80.315 F360
G01 X67.290Y0.000 F360
G01 Z-1.350 F30
G01 X-0.000Y0.000 F360
G01 X-0.000Y80.315 F360
G01 X67.290Y80.315 F360
G01 X67.290Y0.000 F360
G01 Z-1.500 F30
G01 X-0.000Y0.000 F360
G01 X-0.000Y80.315 F360
G01 X67.290Y80.315 F360
G01 X67.290Y0.000 F360
G01 Z-1.600 F30
G01 X-0.000Y0.000 F360
G01 X-0.000Y80.315 F360
G01 X67.290Y80.315 F360
G01 X67.290Y0.000 F360
G00 Z1.000
M05
G04 P4000
G00 X0Y0
