(RS-274 Compatible G-code generated for UCCNC controller and Stepcraft 2 Mill)
(Created by in EagleCAD with the stepcraft.ulp 0.2.)
(File: "CD_Cap_brd.brd" created on: 6/29/2016 12:34 PM)
(Use a 1/64inch Bit)

G90 G94 G49
G21
G00 Z5
G00 X0Y0
S19500 M03
G04 P4000
G00 Z1.000
G00 X96.520Y33.020
G01 Z-0.050 F12
G01 X98.743Y33.020 F144
G01 X98.743Y33.973 F144
G01 X101.600Y33.973 F144
G01 X101.600Y31.115 F144
G01 X104.140Y31.115 F144
G01 X104.140Y34.925 F144
G01 X103.188Y35.878 F144
G01 X96.520Y35.878 F144
G01 X96.520Y33.020 F144
G01 X96.520Y25.718 F144
G01 X101.600Y25.718 F144
G01 X101.600Y28.893 F144
G01 X99.695Y28.893 F144
G01 X99.695Y30.798 F144
G01 X99.377Y30.798 F144
G01 X98.743Y31.433 F144
G01 X98.743Y33.020 F144
G00 Z1.000
G00 X104.140Y31.115
G01 Z-0.050 F12
G01 X104.140Y30.798 F144
G01 X103.505Y30.163 F144
G01 X103.505Y20.320 F144
G01 X99.695Y20.320 F144
G01 X96.520Y20.320 F144
G01 X96.520Y12.700 F144
G01 X101.600Y12.700 F144
G01 X101.600Y4.128 F144
G01 X96.520Y4.128 F144
G00 Z1.000
G00 X99.695Y20.320
G01 Z-0.050 F12
G01 X99.695Y17.463 F144
G01 X103.505Y17.463 F144
G01 X103.823Y17.463 F144
G01 X104.140Y17.145 F144
G01 X104.140Y6.985 F144
G01 X104.140Y4.128 F144
G01 X101.600Y4.128 F144
G00 Z1.000
G00 X104.140Y6.985
G01 Z-0.050 F12
G01 X106.680Y6.985 F144
G01 X106.680Y-0.318 F144
G00 Z1.000
G00 X104.140Y31.115
G01 Z-0.050 F12
G01 X106.998Y31.115 F144
G01 X106.998Y38.418 F144
G00 Z1.000
G00 X103.505Y20.320
G01 Z-0.050 F12
G01 X103.505Y17.463 F144
G00 Z1.000
G00 X96.520Y4.128
G01 Z-0.050 F12
G01 X96.520Y12.700 F144
G00 Z1.000
G00 X96.520Y20.320
G01 Z-0.050 F12
G01 X96.520Y25.718 F144
G00 Z1.000
M05
G04 P4000
G00 X0Y0
