(RS-274 Compatible G-code generated for UCCNC controller and Stepcraft 2 Mill)
(Created by in EagleCAD with the stepcraft.ulp 0.2.)
(File: "CD_CONTROL_BRD.brd" created on: 7/9/16 11:26 AM)
(Use a 1/32inch Bit)

G90 G94 G49
G21
G00 Z5
G00 X0Y0
S19500 M03
G04 P4000
G00 X28.031Y33.020
G01 Z-0.150 F30
G03 F360
X28.031Y33.020 I-0.111
G01 Z-0.300 F30
G03 F360
X28.031Y33.020 I-0.111
G01 Z-0.450 F30
G03 F360
X28.031Y33.020 I-0.111
G01 Z-0.600 F30
G03 F360
X28.031Y33.020 I-0.111
G01 Z-0.750 F30
G03 F360
X28.031Y33.020 I-0.111
G01 Z-0.900 F30
G03 F360
X28.031Y33.020 I-0.111
G01 Z-1.050 F30
G03 F360
X28.031Y33.020 I-0.111
G01 Z-1.200 F30
G03 F360
X28.031Y33.020 I-0.111
G01 Z-1.350 F30
G03 F360
X28.031Y33.020 I-0.111
G01 Z-1.500 F30
G03 F360
X28.031Y33.020 I-0.111
G01 Z-1.600 F30
G03 F360
X28.031Y33.020 I-0.111
G00 Z1.000
G00 X28.031Y30.480
G01 Z-0.150 F30
G03 F360
X28.031Y30.480 I-0.111
G01 Z-0.300 F30
G03 F360
X28.031Y30.480 I-0.111
G01 Z-0.450 F30
G03 F360
X28.031Y30.480 I-0.111
G01 Z-0.600 F30
G03 F360
X28.031Y30.480 I-0.111
G01 Z-0.750 F30
G03 F360
X28.031Y30.480 I-0.111
G01 Z-0.900 F30
G03 F360
X28.031Y30.480 I-0.111
G01 Z-1.050 F30
G03 F360
X28.031Y30.480 I-0.111
G01 Z-1.200 F30
G03 F360
X28.031Y30.480 I-0.111
G01 Z-1.350 F30
G03 F360
X28.031Y30.480 I-0.111
G01 Z-1.500 F30
G03 F360
X28.031Y30.480 I-0.111
G01 Z-1.600 F30
G03 F360
X28.031Y30.480 I-0.111
G00 Z1.000
G00 X28.031Y27.940
G01 Z-0.150 F30
G03 F360
X28.031Y27.940 I-0.111
G01 Z-0.300 F30
G03 F360
X28.031Y27.940 I-0.111
G01 Z-0.450 F30
G03 F360
X28.031Y27.940 I-0.111
G01 Z-0.600 F30
G03 F360
X28.031Y27.940 I-0.111
G01 Z-0.750 F30
G03 F360
X28.031Y27.940 I-0.111
G01 Z-0.900 F30
G03 F360
X28.031Y27.940 I-0.111
G01 Z-1.050 F30
G03 F360
X28.031Y27.940 I-0.111
G01 Z-1.200 F30
G03 F360
X28.031Y27.940 I-0.111
G01 Z-1.350 F30
G03 F360
X28.031Y27.940 I-0.111
G01 Z-1.500 F30
G03 F360
X28.031Y27.940 I-0.111
G01 Z-1.600 F30
G03 F360
X28.031Y27.940 I-0.111
G00 Z1.000
G00 X28.031Y25.400
G01 Z-0.150 F30
G03 F360
X28.031Y25.400 I-0.111
G01 Z-0.300 F30
G03 F360
X28.031Y25.400 I-0.111
G01 Z-0.450 F30
G03 F360
X28.031Y25.400 I-0.111
G01 Z-0.600 F30
G03 F360
X28.031Y25.400 I-0.111
G01 Z-0.750 F30
G03 F360
X28.031Y25.400 I-0.111
G01 Z-0.900 F30
G03 F360
X28.031Y25.400 I-0.111
G01 Z-1.050 F30
G03 F360
X28.031Y25.400 I-0.111
G01 Z-1.200 F30
G03 F360
X28.031Y25.400 I-0.111
G01 Z-1.350 F30
G03 F360
X28.031Y25.400 I-0.111
G01 Z-1.500 F30
G03 F360
X28.031Y25.400 I-0.111
G01 Z-1.600 F30
G03 F360
X28.031Y25.400 I-0.111
G00 Z1.000
G00 X28.031Y22.860
G01 Z-0.150 F30
G03 F360
X28.031Y22.860 I-0.111
G01 Z-0.300 F30
G03 F360
X28.031Y22.860 I-0.111
G01 Z-0.450 F30
G03 F360
X28.031Y22.860 I-0.111
G01 Z-0.600 F30
G03 F360
X28.031Y22.860 I-0.111
G01 Z-0.750 F30
G03 F360
X28.031Y22.860 I-0.111
G01 Z-0.900 F30
G03 F360
X28.031Y22.860 I-0.111
G01 Z-1.050 F30
G03 F360
X28.031Y22.860 I-0.111
G01 Z-1.200 F30
G03 F360
X28.031Y22.860 I-0.111
G01 Z-1.350 F30
G03 F360
X28.031Y22.860 I-0.111
G01 Z-1.500 F30
G03 F360
X28.031Y22.860 I-0.111
G01 Z-1.600 F30
G03 F360
X28.031Y22.860 I-0.111
G00 Z1.000
G00 X28.031Y20.320
G01 Z-0.150 F30
G03 F360
X28.031Y20.320 I-0.111
G01 Z-0.300 F30
G03 F360
X28.031Y20.320 I-0.111
G01 Z-0.450 F30
G03 F360
X28.031Y20.320 I-0.111
G01 Z-0.600 F30
G03 F360
X28.031Y20.320 I-0.111
G01 Z-0.750 F30
G03 F360
X28.031Y20.320 I-0.111
G01 Z-0.900 F30
G03 F360
X28.031Y20.320 I-0.111
G01 Z-1.050 F30
G03 F360
X28.031Y20.320 I-0.111
G01 Z-1.200 F30
G03 F360
X28.031Y20.320 I-0.111
G01 Z-1.350 F30
G03 F360
X28.031Y20.320 I-0.111
G01 Z-1.500 F30
G03 F360
X28.031Y20.320 I-0.111
G01 Z-1.600 F30
G03 F360
X28.031Y20.320 I-0.111
G00 Z1.000
G00 X28.031Y17.780
G01 Z-0.150 F30
G03 F360
X28.031Y17.780 I-0.111
G01 Z-0.300 F30
G03 F360
X28.031Y17.780 I-0.111
G01 Z-0.450 F30
G03 F360
X28.031Y17.780 I-0.111
G01 Z-0.600 F30
G03 F360
X28.031Y17.780 I-0.111
G01 Z-0.750 F30
G03 F360
X28.031Y17.780 I-0.111
G01 Z-0.900 F30
G03 F360
X28.031Y17.780 I-0.111
G01 Z-1.050 F30
G03 F360
X28.031Y17.780 I-0.111
G01 Z-1.200 F30
G03 F360
X28.031Y17.780 I-0.111
G01 Z-1.350 F30
G03 F360
X28.031Y17.780 I-0.111
G01 Z-1.500 F30
G03 F360
X28.031Y17.780 I-0.111
G01 Z-1.600 F30
G03 F360
X28.031Y17.780 I-0.111
G00 Z1.000
G00 X28.031Y15.240
G01 Z-0.150 F30
G03 F360
X28.031Y15.240 I-0.111
G01 Z-0.300 F30
G03 F360
X28.031Y15.240 I-0.111
G01 Z-0.450 F30
G03 F360
X28.031Y15.240 I-0.111
G01 Z-0.600 F30
G03 F360
X28.031Y15.240 I-0.111
G01 Z-0.750 F30
G03 F360
X28.031Y15.240 I-0.111
G01 Z-0.900 F30
G03 F360
X28.031Y15.240 I-0.111
G01 Z-1.050 F30
G03 F360
X28.031Y15.240 I-0.111
G01 Z-1.200 F30
G03 F360
X28.031Y15.240 I-0.111
G01 Z-1.350 F30
G03 F360
X28.031Y15.240 I-0.111
G01 Z-1.500 F30
G03 F360
X28.031Y15.240 I-0.111
G01 Z-1.600 F30
G03 F360
X28.031Y15.240 I-0.111
G00 Z1.000
G00 X28.031Y12.700
G01 Z-0.150 F30
G03 F360
X28.031Y12.700 I-0.111
G01 Z-0.300 F30
G03 F360
X28.031Y12.700 I-0.111
G01 Z-0.450 F30
G03 F360
X28.031Y12.700 I-0.111
G01 Z-0.600 F30
G03 F360
X28.031Y12.700 I-0.111
G01 Z-0.750 F30
G03 F360
X28.031Y12.700 I-0.111
G01 Z-0.900 F30
G03 F360
X28.031Y12.700 I-0.111
G01 Z-1.050 F30
G03 F360
X28.031Y12.700 I-0.111
G01 Z-1.200 F30
G03 F360
X28.031Y12.700 I-0.111
G01 Z-1.350 F30
G03 F360
X28.031Y12.700 I-0.111
G01 Z-1.500 F30
G03 F360
X28.031Y12.700 I-0.111
G01 Z-1.600 F30
G03 F360
X28.031Y12.700 I-0.111
G00 Z1.000
G00 X28.031Y10.160
G01 Z-0.150 F30
G03 F360
X28.031Y10.160 I-0.111
G01 Z-0.300 F30
G03 F360
X28.031Y10.160 I-0.111
G01 Z-0.450 F30
G03 F360
X28.031Y10.160 I-0.111
G01 Z-0.600 F30
G03 F360
X28.031Y10.160 I-0.111
G01 Z-0.750 F30
G03 F360
X28.031Y10.160 I-0.111
G01 Z-0.900 F30
G03 F360
X28.031Y10.160 I-0.111
G01 Z-1.050 F30
G03 F360
X28.031Y10.160 I-0.111
G01 Z-1.200 F30
G03 F360
X28.031Y10.160 I-0.111
G01 Z-1.350 F30
G03 F360
X28.031Y10.160 I-0.111
G01 Z-1.500 F30
G03 F360
X28.031Y10.160 I-0.111
G01 Z-1.600 F30
G03 F360
X28.031Y10.160 I-0.111
G00 Z1.000
G00 X28.031Y7.620
G01 Z-0.150 F30
G03 F360
X28.031Y7.620 I-0.111
G01 Z-0.300 F30
G03 F360
X28.031Y7.620 I-0.111
G01 Z-0.450 F30
G03 F360
X28.031Y7.620 I-0.111
G01 Z-0.600 F30
G03 F360
X28.031Y7.620 I-0.111
G01 Z-0.750 F30
G03 F360
X28.031Y7.620 I-0.111
G01 Z-0.900 F30
G03 F360
X28.031Y7.620 I-0.111
G01 Z-1.050 F30
G03 F360
X28.031Y7.620 I-0.111
G01 Z-1.200 F30
G03 F360
X28.031Y7.620 I-0.111
G01 Z-1.350 F30
G03 F360
X28.031Y7.620 I-0.111
G01 Z-1.500 F30
G03 F360
X28.031Y7.620 I-0.111
G01 Z-1.600 F30
G03 F360
X28.031Y7.620 I-0.111
G00 Z1.000
G00 X28.031Y5.080
G01 Z-0.150 F30
G03 F360
X28.031Y5.080 I-0.111
G01 Z-0.300 F30
G03 F360
X28.031Y5.080 I-0.111
G01 Z-0.450 F30
G03 F360
X28.031Y5.080 I-0.111
G01 Z-0.600 F30
G03 F360
X28.031Y5.080 I-0.111
G01 Z-0.750 F30
G03 F360
X28.031Y5.080 I-0.111
G01 Z-0.900 F30
G03 F360
X28.031Y5.080 I-0.111
G01 Z-1.050 F30
G03 F360
X28.031Y5.080 I-0.111
G01 Z-1.200 F30
G03 F360
X28.031Y5.080 I-0.111
G01 Z-1.350 F30
G03 F360
X28.031Y5.080 I-0.111
G01 Z-1.500 F30
G03 F360
X28.031Y5.080 I-0.111
G01 Z-1.600 F30
G03 F360
X28.031Y5.080 I-0.111
G00 Z1.000
G00 X12.791Y5.080
G01 Z-0.150 F30
G03 F360
X12.791Y5.080 I-0.111
G01 Z-0.300 F30
G03 F360
X12.791Y5.080 I-0.111
G01 Z-0.450 F30
G03 F360
X12.791Y5.080 I-0.111
G01 Z-0.600 F30
G03 F360
X12.791Y5.080 I-0.111
G01 Z-0.750 F30
G03 F360
X12.791Y5.080 I-0.111
G01 Z-0.900 F30
G03 F360
X12.791Y5.080 I-0.111
G01 Z-1.050 F30
G03 F360
X12.791Y5.080 I-0.111
G01 Z-1.200 F30
G03 F360
X12.791Y5.080 I-0.111
G01 Z-1.350 F30
G03 F360
X12.791Y5.080 I-0.111
G01 Z-1.500 F30
G03 F360
X12.791Y5.080 I-0.111
G01 Z-1.600 F30
G03 F360
X12.791Y5.080 I-0.111
G00 Z1.000
G00 X12.791Y7.620
G01 Z-0.150 F30
G03 F360
X12.791Y7.620 I-0.111
G01 Z-0.300 F30
G03 F360
X12.791Y7.620 I-0.111
G01 Z-0.450 F30
G03 F360
X12.791Y7.620 I-0.111
G01 Z-0.600 F30
G03 F360
X12.791Y7.620 I-0.111
G01 Z-0.750 F30
G03 F360
X12.791Y7.620 I-0.111
G01 Z-0.900 F30
G03 F360
X12.791Y7.620 I-0.111
G01 Z-1.050 F30
G03 F360
X12.791Y7.620 I-0.111
G01 Z-1.200 F30
G03 F360
X12.791Y7.620 I-0.111
G01 Z-1.350 F30
G03 F360
X12.791Y7.620 I-0.111
G01 Z-1.500 F30
G03 F360
X12.791Y7.620 I-0.111
G01 Z-1.600 F30
G03 F360
X12.791Y7.620 I-0.111
G00 Z1.000
G00 X12.791Y10.160
G01 Z-0.150 F30
G03 F360
X12.791Y10.160 I-0.111
G01 Z-0.300 F30
G03 F360
X12.791Y10.160 I-0.111
G01 Z-0.450 F30
G03 F360
X12.791Y10.160 I-0.111
G01 Z-0.600 F30
G03 F360
X12.791Y10.160 I-0.111
G01 Z-0.750 F30
G03 F360
X12.791Y10.160 I-0.111
G01 Z-0.900 F30
G03 F360
X12.791Y10.160 I-0.111
G01 Z-1.050 F30
G03 F360
X12.791Y10.160 I-0.111
G01 Z-1.200 F30
G03 F360
X12.791Y10.160 I-0.111
G01 Z-1.350 F30
G03 F360
X12.791Y10.160 I-0.111
G01 Z-1.500 F30
G03 F360
X12.791Y10.160 I-0.111
G01 Z-1.600 F30
G03 F360
X12.791Y10.160 I-0.111
G00 Z1.000
G00 X12.791Y12.700
G01 Z-0.150 F30
G03 F360
X12.791Y12.700 I-0.111
G01 Z-0.300 F30
G03 F360
X12.791Y12.700 I-0.111
G01 Z-0.450 F30
G03 F360
X12.791Y12.700 I-0.111
G01 Z-0.600 F30
G03 F360
X12.791Y12.700 I-0.111
G01 Z-0.750 F30
G03 F360
X12.791Y12.700 I-0.111
G01 Z-0.900 F30
G03 F360
X12.791Y12.700 I-0.111
G01 Z-1.050 F30
G03 F360
X12.791Y12.700 I-0.111
G01 Z-1.200 F30
G03 F360
X12.791Y12.700 I-0.111
G01 Z-1.350 F30
G03 F360
X12.791Y12.700 I-0.111
G01 Z-1.500 F30
G03 F360
X12.791Y12.700 I-0.111
G01 Z-1.600 F30
G03 F360
X12.791Y12.700 I-0.111
G00 Z1.000
G00 X12.791Y15.240
G01 Z-0.150 F30
G03 F360
X12.791Y15.240 I-0.111
G01 Z-0.300 F30
G03 F360
X12.791Y15.240 I-0.111
G01 Z-0.450 F30
G03 F360
X12.791Y15.240 I-0.111
G01 Z-0.600 F30
G03 F360
X12.791Y15.240 I-0.111
G01 Z-0.750 F30
G03 F360
X12.791Y15.240 I-0.111
G01 Z-0.900 F30
G03 F360
X12.791Y15.240 I-0.111
G01 Z-1.050 F30
G03 F360
X12.791Y15.240 I-0.111
G01 Z-1.200 F30
G03 F360
X12.791Y15.240 I-0.111
G01 Z-1.350 F30
G03 F360
X12.791Y15.240 I-0.111
G01 Z-1.500 F30
G03 F360
X12.791Y15.240 I-0.111
G01 Z-1.600 F30
G03 F360
X12.791Y15.240 I-0.111
G00 Z1.000
G00 X12.791Y17.780
G01 Z-0.150 F30
G03 F360
X12.791Y17.780 I-0.111
G01 Z-0.300 F30
G03 F360
X12.791Y17.780 I-0.111
G01 Z-0.450 F30
G03 F360
X12.791Y17.780 I-0.111
G01 Z-0.600 F30
G03 F360
X12.791Y17.780 I-0.111
G01 Z-0.750 F30
G03 F360
X12.791Y17.780 I-0.111
G01 Z-0.900 F30
G03 F360
X12.791Y17.780 I-0.111
G01 Z-1.050 F30
G03 F360
X12.791Y17.780 I-0.111
G01 Z-1.200 F30
G03 F360
X12.791Y17.780 I-0.111
G01 Z-1.350 F30
G03 F360
X12.791Y17.780 I-0.111
G01 Z-1.500 F30
G03 F360
X12.791Y17.780 I-0.111
G01 Z-1.600 F30
G03 F360
X12.791Y17.780 I-0.111
G00 Z1.000
G00 X12.791Y20.320
G01 Z-0.150 F30
G03 F360
X12.791Y20.320 I-0.111
G01 Z-0.300 F30
G03 F360
X12.791Y20.320 I-0.111
G01 Z-0.450 F30
G03 F360
X12.791Y20.320 I-0.111
G01 Z-0.600 F30
G03 F360
X12.791Y20.320 I-0.111
G01 Z-0.750 F30
G03 F360
X12.791Y20.320 I-0.111
G01 Z-0.900 F30
G03 F360
X12.791Y20.320 I-0.111
G01 Z-1.050 F30
G03 F360
X12.791Y20.320 I-0.111
G01 Z-1.200 F30
G03 F360
X12.791Y20.320 I-0.111
G01 Z-1.350 F30
G03 F360
X12.791Y20.320 I-0.111
G01 Z-1.500 F30
G03 F360
X12.791Y20.320 I-0.111
G01 Z-1.600 F30
G03 F360
X12.791Y20.320 I-0.111
G00 Z1.000
G00 X12.791Y22.860
G01 Z-0.150 F30
G03 F360
X12.791Y22.860 I-0.111
G01 Z-0.300 F30
G03 F360
X12.791Y22.860 I-0.111
G01 Z-0.450 F30
G03 F360
X12.791Y22.860 I-0.111
G01 Z-0.600 F30
G03 F360
X12.791Y22.860 I-0.111
G01 Z-0.750 F30
G03 F360
X12.791Y22.860 I-0.111
G01 Z-0.900 F30
G03 F360
X12.791Y22.860 I-0.111
G01 Z-1.050 F30
G03 F360
X12.791Y22.860 I-0.111
G01 Z-1.200 F30
G03 F360
X12.791Y22.860 I-0.111
G01 Z-1.350 F30
G03 F360
X12.791Y22.860 I-0.111
G01 Z-1.500 F30
G03 F360
X12.791Y22.860 I-0.111
G01 Z-1.600 F30
G03 F360
X12.791Y22.860 I-0.111
G00 Z1.000
G00 X12.791Y25.400
G01 Z-0.150 F30
G03 F360
X12.791Y25.400 I-0.111
G01 Z-0.300 F30
G03 F360
X12.791Y25.400 I-0.111
G01 Z-0.450 F30
G03 F360
X12.791Y25.400 I-0.111
G01 Z-0.600 F30
G03 F360
X12.791Y25.400 I-0.111
G01 Z-0.750 F30
G03 F360
X12.791Y25.400 I-0.111
G01 Z-0.900 F30
G03 F360
X12.791Y25.400 I-0.111
G01 Z-1.050 F30
G03 F360
X12.791Y25.400 I-0.111
G01 Z-1.200 F30
G03 F360
X12.791Y25.400 I-0.111
G01 Z-1.350 F30
G03 F360
X12.791Y25.400 I-0.111
G01 Z-1.500 F30
G03 F360
X12.791Y25.400 I-0.111
G01 Z-1.600 F30
G03 F360
X12.791Y25.400 I-0.111
G00 Z1.000
G00 X12.791Y27.940
G01 Z-0.150 F30
G03 F360
X12.791Y27.940 I-0.111
G01 Z-0.300 F30
G03 F360
X12.791Y27.940 I-0.111
G01 Z-0.450 F30
G03 F360
X12.791Y27.940 I-0.111
G01 Z-0.600 F30
G03 F360
X12.791Y27.940 I-0.111
G01 Z-0.750 F30
G03 F360
X12.791Y27.940 I-0.111
G01 Z-0.900 F30
G03 F360
X12.791Y27.940 I-0.111
G01 Z-1.050 F30
G03 F360
X12.791Y27.940 I-0.111
G01 Z-1.200 F30
G03 F360
X12.791Y27.940 I-0.111
G01 Z-1.350 F30
G03 F360
X12.791Y27.940 I-0.111
G01 Z-1.500 F30
G03 F360
X12.791Y27.940 I-0.111
G01 Z-1.600 F30
G03 F360
X12.791Y27.940 I-0.111
G00 Z1.000
G00 X12.791Y30.480
G01 Z-0.150 F30
G03 F360
X12.791Y30.480 I-0.111
G01 Z-0.300 F30
G03 F360
X12.791Y30.480 I-0.111
G01 Z-0.450 F30
G03 F360
X12.791Y30.480 I-0.111
G01 Z-0.600 F30
G03 F360
X12.791Y30.480 I-0.111
G01 Z-0.750 F30
G03 F360
X12.791Y30.480 I-0.111
G01 Z-0.900 F30
G03 F360
X12.791Y30.480 I-0.111
G01 Z-1.050 F30
G03 F360
X12.791Y30.480 I-0.111
G01 Z-1.200 F30
G03 F360
X12.791Y30.480 I-0.111
G01 Z-1.350 F30
G03 F360
X12.791Y30.480 I-0.111
G01 Z-1.500 F30
G03 F360
X12.791Y30.480 I-0.111
G01 Z-1.600 F30
G03 F360
X12.791Y30.480 I-0.111
G00 Z1.000
G00 X12.791Y33.020
G01 Z-0.150 F30
G03 F360
X12.791Y33.020 I-0.111
G01 Z-0.300 F30
G03 F360
X12.791Y33.020 I-0.111
G01 Z-0.450 F30
G03 F360
X12.791Y33.020 I-0.111
G01 Z-0.600 F30
G03 F360
X12.791Y33.020 I-0.111
G01 Z-0.750 F30
G03 F360
X12.791Y33.020 I-0.111
G01 Z-0.900 F30
G03 F360
X12.791Y33.020 I-0.111
G01 Z-1.050 F30
G03 F360
X12.791Y33.020 I-0.111
G01 Z-1.200 F30
G03 F360
X12.791Y33.020 I-0.111
G01 Z-1.350 F30
G03 F360
X12.791Y33.020 I-0.111
G01 Z-1.500 F30
G03 F360
X12.791Y33.020 I-0.111
G01 Z-1.600 F30
G03 F360
X12.791Y33.020 I-0.111
G00 Z1.000
G00 X15.648Y21.749
G01 Z-0.150 F30
G03 F360
X15.648Y21.749 I-0.111
G01 Z-0.300 F30
G03 F360
X15.648Y21.749 I-0.111
G01 Z-0.450 F30
G03 F360
X15.648Y21.749 I-0.111
G01 Z-0.600 F30
G03 F360
X15.648Y21.749 I-0.111
G01 Z-0.750 F30
G03 F360
X15.648Y21.749 I-0.111
G01 Z-0.900 F30
G03 F360
X15.648Y21.749 I-0.111
G01 Z-1.050 F30
G03 F360
X15.648Y21.749 I-0.111
G01 Z-1.200 F30
G03 F360
X15.648Y21.749 I-0.111
G01 Z-1.350 F30
G03 F360
X15.648Y21.749 I-0.111
G01 Z-1.500 F30
G03 F360
X15.648Y21.749 I-0.111
G01 Z-1.600 F30
G03 F360
X15.648Y21.749 I-0.111
G00 Z1.000
G00 X15.648Y24.289
G01 Z-0.150 F30
G03 F360
X15.648Y24.289 I-0.111
G01 Z-0.300 F30
G03 F360
X15.648Y24.289 I-0.111
G01 Z-0.450 F30
G03 F360
X15.648Y24.289 I-0.111
G01 Z-0.600 F30
G03 F360
X15.648Y24.289 I-0.111
G01 Z-0.750 F30
G03 F360
X15.648Y24.289 I-0.111
G01 Z-0.900 F30
G03 F360
X15.648Y24.289 I-0.111
G01 Z-1.050 F30
G03 F360
X15.648Y24.289 I-0.111
G01 Z-1.200 F30
G03 F360
X15.648Y24.289 I-0.111
G01 Z-1.350 F30
G03 F360
X15.648Y24.289 I-0.111
G01 Z-1.500 F30
G03 F360
X15.648Y24.289 I-0.111
G01 Z-1.600 F30
G03 F360
X15.648Y24.289 I-0.111
G00 Z1.000
G00 X15.648Y11.271
G01 Z-0.150 F30
G03 F360
X15.648Y11.271 I-0.111
G01 Z-0.300 F30
G03 F360
X15.648Y11.271 I-0.111
G01 Z-0.450 F30
G03 F360
X15.648Y11.271 I-0.111
G01 Z-0.600 F30
G03 F360
X15.648Y11.271 I-0.111
G01 Z-0.750 F30
G03 F360
X15.648Y11.271 I-0.111
G01 Z-0.900 F30
G03 F360
X15.648Y11.271 I-0.111
G01 Z-1.050 F30
G03 F360
X15.648Y11.271 I-0.111
G01 Z-1.200 F30
G03 F360
X15.648Y11.271 I-0.111
G01 Z-1.350 F30
G03 F360
X15.648Y11.271 I-0.111
G01 Z-1.500 F30
G03 F360
X15.648Y11.271 I-0.111
G01 Z-1.600 F30
G03 F360
X15.648Y11.271 I-0.111
G00 Z1.000
G00 X15.648Y13.811
G01 Z-0.150 F30
G03 F360
X15.648Y13.811 I-0.111
G01 Z-0.300 F30
G03 F360
X15.648Y13.811 I-0.111
G01 Z-0.450 F30
G03 F360
X15.648Y13.811 I-0.111
G01 Z-0.600 F30
G03 F360
X15.648Y13.811 I-0.111
G01 Z-0.750 F30
G03 F360
X15.648Y13.811 I-0.111
G01 Z-0.900 F30
G03 F360
X15.648Y13.811 I-0.111
G01 Z-1.050 F30
G03 F360
X15.648Y13.811 I-0.111
G01 Z-1.200 F30
G03 F360
X15.648Y13.811 I-0.111
G01 Z-1.350 F30
G03 F360
X15.648Y13.811 I-0.111
G01 Z-1.500 F30
G03 F360
X15.648Y13.811 I-0.111
G01 Z-1.600 F30
G03 F360
X15.648Y13.811 I-0.111
G00 Z1.000
G00 X6.314Y46.355
G01 Z-0.150 F30
G03 F360
X6.314Y46.355 I-0.111
G01 Z-0.300 F30
G03 F360
X6.314Y46.355 I-0.111
G01 Z-0.450 F30
G03 F360
X6.314Y46.355 I-0.111
G01 Z-0.600 F30
G03 F360
X6.314Y46.355 I-0.111
G01 Z-0.750 F30
G03 F360
X6.314Y46.355 I-0.111
G01 Z-0.900 F30
G03 F360
X6.314Y46.355 I-0.111
G01 Z-1.050 F30
G03 F360
X6.314Y46.355 I-0.111
G01 Z-1.200 F30
G03 F360
X6.314Y46.355 I-0.111
G01 Z-1.350 F30
G03 F360
X6.314Y46.355 I-0.111
G01 Z-1.500 F30
G03 F360
X6.314Y46.355 I-0.111
G01 Z-1.600 F30
G03 F360
X6.314Y46.355 I-0.111
G00 Z1.000
G00 X6.568Y43.815
G01 Z-0.150 F30
G03 F360
X6.568Y43.815 I-0.111
G01 Z-0.300 F30
G03 F360
X6.568Y43.815 I-0.111
G01 Z-0.450 F30
G03 F360
X6.568Y43.815 I-0.111
G01 Z-0.600 F30
G03 F360
X6.568Y43.815 I-0.111
G01 Z-0.750 F30
G03 F360
X6.568Y43.815 I-0.111
G01 Z-0.900 F30
G03 F360
X6.568Y43.815 I-0.111
G01 Z-1.050 F30
G03 F360
X6.568Y43.815 I-0.111
G01 Z-1.200 F30
G03 F360
X6.568Y43.815 I-0.111
G01 Z-1.350 F30
G03 F360
X6.568Y43.815 I-0.111
G01 Z-1.500 F30
G03 F360
X6.568Y43.815 I-0.111
G01 Z-1.600 F30
G03 F360
X6.568Y43.815 I-0.111
G00 Z1.000
G00 X6.314Y41.275
G01 Z-0.150 F30
G03 F360
X6.314Y41.275 I-0.111
G01 Z-0.300 F30
G03 F360
X6.314Y41.275 I-0.111
G01 Z-0.450 F30
G03 F360
X6.314Y41.275 I-0.111
G01 Z-0.600 F30
G03 F360
X6.314Y41.275 I-0.111
G01 Z-0.750 F30
G03 F360
X6.314Y41.275 I-0.111
G01 Z-0.900 F30
G03 F360
X6.314Y41.275 I-0.111
G01 Z-1.050 F30
G03 F360
X6.314Y41.275 I-0.111
G01 Z-1.200 F30
G03 F360
X6.314Y41.275 I-0.111
G01 Z-1.350 F30
G03 F360
X6.314Y41.275 I-0.111
G01 Z-1.500 F30
G03 F360
X6.314Y41.275 I-0.111
G01 Z-1.600 F30
G03 F360
X6.314Y41.275 I-0.111
G00 Z1.000
G00 X8.663Y30.620
G01 Z-0.150 F30
G03 F360
X8.663Y30.620 I-0.111
G01 Z-0.300 F30
G03 F360
X8.663Y30.620 I-0.111
G01 Z-0.450 F30
G03 F360
X8.663Y30.620 I-0.111
G01 Z-0.600 F30
G03 F360
X8.663Y30.620 I-0.111
G01 Z-0.750 F30
G03 F360
X8.663Y30.620 I-0.111
G01 Z-0.900 F30
G03 F360
X8.663Y30.620 I-0.111
G01 Z-1.050 F30
G03 F360
X8.663Y30.620 I-0.111
G01 Z-1.200 F30
G03 F360
X8.663Y30.620 I-0.111
G01 Z-1.350 F30
G03 F360
X8.663Y30.620 I-0.111
G01 Z-1.500 F30
G03 F360
X8.663Y30.620 I-0.111
G01 Z-1.600 F30
G03 F360
X8.663Y30.620 I-0.111
G00 Z1.000
G00 X8.663Y33.515
G01 Z-0.150 F30
G03 F360
X8.663Y33.515 I-0.111
G01 Z-0.300 F30
G03 F360
X8.663Y33.515 I-0.111
G01 Z-0.450 F30
G03 F360
X8.663Y33.515 I-0.111
G01 Z-0.600 F30
G03 F360
X8.663Y33.515 I-0.111
G01 Z-0.750 F30
G03 F360
X8.663Y33.515 I-0.111
G01 Z-0.900 F30
G03 F360
X8.663Y33.515 I-0.111
G01 Z-1.050 F30
G03 F360
X8.663Y33.515 I-0.111
G01 Z-1.200 F30
G03 F360
X8.663Y33.515 I-0.111
G01 Z-1.350 F30
G03 F360
X8.663Y33.515 I-0.111
G01 Z-1.500 F30
G03 F360
X8.663Y33.515 I-0.111
G01 Z-1.600 F30
G03 F360
X8.663Y33.515 I-0.111
G00 Z1.000
G00 X6.441Y23.038
G01 Z-0.150 F30
G03 F360
X6.441Y23.038 I-0.111
G01 Z-0.300 F30
G03 F360
X6.441Y23.038 I-0.111
G01 Z-0.450 F30
G03 F360
X6.441Y23.038 I-0.111
G01 Z-0.600 F30
G03 F360
X6.441Y23.038 I-0.111
G01 Z-0.750 F30
G03 F360
X6.441Y23.038 I-0.111
G01 Z-0.900 F30
G03 F360
X6.441Y23.038 I-0.111
G01 Z-1.050 F30
G03 F360
X6.441Y23.038 I-0.111
G01 Z-1.200 F30
G03 F360
X6.441Y23.038 I-0.111
G01 Z-1.350 F30
G03 F360
X6.441Y23.038 I-0.111
G01 Z-1.500 F30
G03 F360
X6.441Y23.038 I-0.111
G01 Z-1.600 F30
G03 F360
X6.441Y23.038 I-0.111
G00 Z1.000
G00 X6.441Y20.142
G01 Z-0.150 F30
G03 F360
X6.441Y20.142 I-0.111
G01 Z-0.300 F30
G03 F360
X6.441Y20.142 I-0.111
G01 Z-0.450 F30
G03 F360
X6.441Y20.142 I-0.111
G01 Z-0.600 F30
G03 F360
X6.441Y20.142 I-0.111
G01 Z-0.750 F30
G03 F360
X6.441Y20.142 I-0.111
G01 Z-0.900 F30
G03 F360
X6.441Y20.142 I-0.111
G01 Z-1.050 F30
G03 F360
X6.441Y20.142 I-0.111
G01 Z-1.200 F30
G03 F360
X6.441Y20.142 I-0.111
G01 Z-1.350 F30
G03 F360
X6.441Y20.142 I-0.111
G01 Z-1.500 F30
G03 F360
X6.441Y20.142 I-0.111
G01 Z-1.600 F30
G03 F360
X6.441Y20.142 I-0.111
G00 Z1.000
G00 X15.523Y53.380
G01 Z-0.150 F30
G03 F360
X15.523Y53.380 I-0.203
G01 Z-0.300 F30
G03 F360
X15.523Y53.380 I-0.203
G01 Z-0.450 F30
G03 F360
X15.523Y53.380 I-0.203
G01 Z-0.600 F30
G03 F360
X15.523Y53.380 I-0.203
G01 Z-0.750 F30
G03 F360
X15.523Y53.380 I-0.203
G01 Z-0.900 F30
G03 F360
X15.523Y53.380 I-0.203
G01 Z-1.050 F30
G03 F360
X15.523Y53.380 I-0.203
G01 Z-1.200 F30
G03 F360
X15.523Y53.380 I-0.203
G01 Z-1.350 F30
G03 F360
X15.523Y53.380 I-0.203
G01 Z-1.500 F30
G03 F360
X15.523Y53.380 I-0.203
G01 Z-1.600 F30
G03 F360
X15.523Y53.380 I-0.203
G00 Z1.000
G00 X28.023Y53.380
G01 Z-0.150 F30
G03 F360
X28.023Y53.380 I-0.203
G01 Z-0.300 F30
G03 F360
X28.023Y53.380 I-0.203
G01 Z-0.450 F30
G03 F360
X28.023Y53.380 I-0.203
G01 Z-0.600 F30
G03 F360
X28.023Y53.380 I-0.203
G01 Z-0.750 F30
G03 F360
X28.023Y53.380 I-0.203
G01 Z-0.900 F30
G03 F360
X28.023Y53.380 I-0.203
G01 Z-1.050 F30
G03 F360
X28.023Y53.380 I-0.203
G01 Z-1.200 F30
G03 F360
X28.023Y53.380 I-0.203
G01 Z-1.350 F30
G03 F360
X28.023Y53.380 I-0.203
G01 Z-1.500 F30
G03 F360
X28.023Y53.380 I-0.203
G01 Z-1.600 F30
G03 F360
X28.023Y53.380 I-0.203
G00 Z1.000
G00 X15.523Y58.380
G01 Z-0.150 F30
G03 F360
X15.523Y58.380 I-0.203
G01 Z-0.300 F30
G03 F360
X15.523Y58.380 I-0.203
G01 Z-0.450 F30
G03 F360
X15.523Y58.380 I-0.203
G01 Z-0.600 F30
G03 F360
X15.523Y58.380 I-0.203
G01 Z-0.750 F30
G03 F360
X15.523Y58.380 I-0.203
G01 Z-0.900 F30
G03 F360
X15.523Y58.380 I-0.203
G01 Z-1.050 F30
G03 F360
X15.523Y58.380 I-0.203
G01 Z-1.200 F30
G03 F360
X15.523Y58.380 I-0.203
G01 Z-1.350 F30
G03 F360
X15.523Y58.380 I-0.203
G01 Z-1.500 F30
G03 F360
X15.523Y58.380 I-0.203
G01 Z-1.600 F30
G03 F360
X15.523Y58.380 I-0.203
G00 Z1.000
G00 X28.023Y58.380
G01 Z-0.150 F30
G03 F360
X28.023Y58.380 I-0.203
G01 Z-0.300 F30
G03 F360
X28.023Y58.380 I-0.203
G01 Z-0.450 F30
G03 F360
X28.023Y58.380 I-0.203
G01 Z-0.600 F30
G03 F360
X28.023Y58.380 I-0.203
G01 Z-0.750 F30
G03 F360
X28.023Y58.380 I-0.203
G01 Z-0.900 F30
G03 F360
X28.023Y58.380 I-0.203
G01 Z-1.050 F30
G03 F360
X28.023Y58.380 I-0.203
G01 Z-1.200 F30
G03 F360
X28.023Y58.380 I-0.203
G01 Z-1.350 F30
G03 F360
X28.023Y58.380 I-0.203
G01 Z-1.500 F30
G03 F360
X28.023Y58.380 I-0.203
G01 Z-1.600 F30
G03 F360
X28.023Y58.380 I-0.203
G00 Z1.000
G00 X24.221Y65.532
G01 Z-0.150 F30
G03 F360
X24.221Y65.532 I-0.111
G01 Z-0.300 F30
G03 F360
X24.221Y65.532 I-0.111
G01 Z-0.450 F30
G03 F360
X24.221Y65.532 I-0.111
G01 Z-0.600 F30
G03 F360
X24.221Y65.532 I-0.111
G01 Z-0.750 F30
G03 F360
X24.221Y65.532 I-0.111
G01 Z-0.900 F30
G03 F360
X24.221Y65.532 I-0.111
G01 Z-1.050 F30
G03 F360
X24.221Y65.532 I-0.111
G01 Z-1.200 F30
G03 F360
X24.221Y65.532 I-0.111
G01 Z-1.350 F30
G03 F360
X24.221Y65.532 I-0.111
G01 Z-1.500 F30
G03 F360
X24.221Y65.532 I-0.111
G01 Z-1.600 F30
G03 F360
X24.221Y65.532 I-0.111
G00 Z1.000
G00 X19.141Y65.532
G01 Z-0.150 F30
G03 F360
X19.141Y65.532 I-0.111
G01 Z-0.300 F30
G03 F360
X19.141Y65.532 I-0.111
G01 Z-0.450 F30
G03 F360
X19.141Y65.532 I-0.111
G01 Z-0.600 F30
G03 F360
X19.141Y65.532 I-0.111
G01 Z-0.750 F30
G03 F360
X19.141Y65.532 I-0.111
G01 Z-0.900 F30
G03 F360
X19.141Y65.532 I-0.111
G01 Z-1.050 F30
G03 F360
X19.141Y65.532 I-0.111
G01 Z-1.200 F30
G03 F360
X19.141Y65.532 I-0.111
G01 Z-1.350 F30
G03 F360
X19.141Y65.532 I-0.111
G01 Z-1.500 F30
G03 F360
X19.141Y65.532 I-0.111
G01 Z-1.600 F30
G03 F360
X19.141Y65.532 I-0.111
G00 Z1.000
G00 X21.681Y65.532
G01 Z-0.150 F30
G03 F360
X21.681Y65.532 I-0.111
G01 Z-0.300 F30
G03 F360
X21.681Y65.532 I-0.111
G01 Z-0.450 F30
G03 F360
X21.681Y65.532 I-0.111
G01 Z-0.600 F30
G03 F360
X21.681Y65.532 I-0.111
G01 Z-0.750 F30
G03 F360
X21.681Y65.532 I-0.111
G01 Z-0.900 F30
G03 F360
X21.681Y65.532 I-0.111
G01 Z-1.050 F30
G03 F360
X21.681Y65.532 I-0.111
G01 Z-1.200 F30
G03 F360
X21.681Y65.532 I-0.111
G01 Z-1.350 F30
G03 F360
X21.681Y65.532 I-0.111
G01 Z-1.500 F30
G03 F360
X21.681Y65.532 I-0.111
G01 Z-1.600 F30
G03 F360
X21.681Y65.532 I-0.111
G00 Z1.000
G00 X15.712Y73.025
G01 Z-0.150 F30
G03 F360
X15.712Y73.025 I-0.746
G01 Z-0.300 F30
G03 F360
X15.712Y73.025 I-0.746
G01 Z-0.450 F30
G03 F360
X15.712Y73.025 I-0.746
G01 Z-0.600 F30
G03 F360
X15.712Y73.025 I-0.746
G01 Z-0.750 F30
G03 F360
X15.712Y73.025 I-0.746
G01 Z-0.900 F30
G03 F360
X15.712Y73.025 I-0.746
G01 Z-1.050 F30
G03 F360
X15.712Y73.025 I-0.746
G01 Z-1.200 F30
G03 F360
X15.712Y73.025 I-0.746
G01 Z-1.350 F30
G03 F360
X15.712Y73.025 I-0.746
G01 Z-1.500 F30
G03 F360
X15.712Y73.025 I-0.746
G01 Z-1.600 F30
G03 F360
X15.712Y73.025 I-0.746
G00 Z1.000
G00 X28.920Y73.025
G01 Z-0.150 F30
G03 F360
X28.920Y73.025 I-0.746
G01 Z-0.300 F30
G03 F360
X28.920Y73.025 I-0.746
G01 Z-0.450 F30
G03 F360
X28.920Y73.025 I-0.746
G01 Z-0.600 F30
G03 F360
X28.920Y73.025 I-0.746
G01 Z-0.750 F30
G03 F360
X28.920Y73.025 I-0.746
G01 Z-0.900 F30
G03 F360
X28.920Y73.025 I-0.746
G01 Z-1.050 F30
G03 F360
X28.920Y73.025 I-0.746
G01 Z-1.200 F30
G03 F360
X28.920Y73.025 I-0.746
G01 Z-1.350 F30
G03 F360
X28.920Y73.025 I-0.746
G01 Z-1.500 F30
G03 F360
X28.920Y73.025 I-0.746
G01 Z-1.600 F30
G03 F360
X28.920Y73.025 I-0.746
G00 Z1.000
G00 X63.851Y7.370
G01 Z-0.150 F30
G03 F360
X63.851Y7.370 I-0.111
G01 Z-0.300 F30
G03 F360
X63.851Y7.370 I-0.111
G01 Z-0.450 F30
G03 F360
X63.851Y7.370 I-0.111
G01 Z-0.600 F30
G03 F360
X63.851Y7.370 I-0.111
G01 Z-0.750 F30
G03 F360
X63.851Y7.370 I-0.111
G01 Z-0.900 F30
G03 F360
X63.851Y7.370 I-0.111
G01 Z-1.050 F30
G03 F360
X63.851Y7.370 I-0.111
G01 Z-1.200 F30
G03 F360
X63.851Y7.370 I-0.111
G01 Z-1.350 F30
G03 F360
X63.851Y7.370 I-0.111
G01 Z-1.500 F30
G03 F360
X63.851Y7.370 I-0.111
G01 Z-1.600 F30
G03 F360
X63.851Y7.370 I-0.111
G00 Z1.000
G00 X63.851Y9.910
G01 Z-0.150 F30
G03 F360
X63.851Y9.910 I-0.111
G01 Z-0.300 F30
G03 F360
X63.851Y9.910 I-0.111
G01 Z-0.450 F30
G03 F360
X63.851Y9.910 I-0.111
G01 Z-0.600 F30
G03 F360
X63.851Y9.910 I-0.111
G01 Z-0.750 F30
G03 F360
X63.851Y9.910 I-0.111
G01 Z-0.900 F30
G03 F360
X63.851Y9.910 I-0.111
G01 Z-1.050 F30
G03 F360
X63.851Y9.910 I-0.111
G01 Z-1.200 F30
G03 F360
X63.851Y9.910 I-0.111
G01 Z-1.350 F30
G03 F360
X63.851Y9.910 I-0.111
G01 Z-1.500 F30
G03 F360
X63.851Y9.910 I-0.111
G01 Z-1.600 F30
G03 F360
X63.851Y9.910 I-0.111
G00 Z1.000
G00 X63.851Y12.450
G01 Z-0.150 F30
G03 F360
X63.851Y12.450 I-0.111
G01 Z-0.300 F30
G03 F360
X63.851Y12.450 I-0.111
G01 Z-0.450 F30
G03 F360
X63.851Y12.450 I-0.111
G01 Z-0.600 F30
G03 F360
X63.851Y12.450 I-0.111
G01 Z-0.750 F30
G03 F360
X63.851Y12.450 I-0.111
G01 Z-0.900 F30
G03 F360
X63.851Y12.450 I-0.111
G01 Z-1.050 F30
G03 F360
X63.851Y12.450 I-0.111
G01 Z-1.200 F30
G03 F360
X63.851Y12.450 I-0.111
G01 Z-1.350 F30
G03 F360
X63.851Y12.450 I-0.111
G01 Z-1.500 F30
G03 F360
X63.851Y12.450 I-0.111
G01 Z-1.600 F30
G03 F360
X63.851Y12.450 I-0.111
G00 Z1.000
G00 X63.851Y14.990
G01 Z-0.150 F30
G03 F360
X63.851Y14.990 I-0.111
G01 Z-0.300 F30
G03 F360
X63.851Y14.990 I-0.111
G01 Z-0.450 F30
G03 F360
X63.851Y14.990 I-0.111
G01 Z-0.600 F30
G03 F360
X63.851Y14.990 I-0.111
G01 Z-0.750 F30
G03 F360
X63.851Y14.990 I-0.111
G01 Z-0.900 F30
G03 F360
X63.851Y14.990 I-0.111
G01 Z-1.050 F30
G03 F360
X63.851Y14.990 I-0.111
G01 Z-1.200 F30
G03 F360
X63.851Y14.990 I-0.111
G01 Z-1.350 F30
G03 F360
X63.851Y14.990 I-0.111
G01 Z-1.500 F30
G03 F360
X63.851Y14.990 I-0.111
G01 Z-1.600 F30
G03 F360
X63.851Y14.990 I-0.111
G00 Z1.000
G00 X63.851Y17.530
G01 Z-0.150 F30
G03 F360
X63.851Y17.530 I-0.111
G01 Z-0.300 F30
G03 F360
X63.851Y17.530 I-0.111
G01 Z-0.450 F30
G03 F360
X63.851Y17.530 I-0.111
G01 Z-0.600 F30
G03 F360
X63.851Y17.530 I-0.111
G01 Z-0.750 F30
G03 F360
X63.851Y17.530 I-0.111
G01 Z-0.900 F30
G03 F360
X63.851Y17.530 I-0.111
G01 Z-1.050 F30
G03 F360
X63.851Y17.530 I-0.111
G01 Z-1.200 F30
G03 F360
X63.851Y17.530 I-0.111
G01 Z-1.350 F30
G03 F360
X63.851Y17.530 I-0.111
G01 Z-1.500 F30
G03 F360
X63.851Y17.530 I-0.111
G01 Z-1.600 F30
G03 F360
X63.851Y17.530 I-0.111
G00 Z1.000
G00 X63.851Y20.070
G01 Z-0.150 F30
G03 F360
X63.851Y20.070 I-0.111
G01 Z-0.300 F30
G03 F360
X63.851Y20.070 I-0.111
G01 Z-0.450 F30
G03 F360
X63.851Y20.070 I-0.111
G01 Z-0.600 F30
G03 F360
X63.851Y20.070 I-0.111
G01 Z-0.750 F30
G03 F360
X63.851Y20.070 I-0.111
G01 Z-0.900 F30
G03 F360
X63.851Y20.070 I-0.111
G01 Z-1.050 F30
G03 F360
X63.851Y20.070 I-0.111
G01 Z-1.200 F30
G03 F360
X63.851Y20.070 I-0.111
G01 Z-1.350 F30
G03 F360
X63.851Y20.070 I-0.111
G01 Z-1.500 F30
G03 F360
X63.851Y20.070 I-0.111
G01 Z-1.600 F30
G03 F360
X63.851Y20.070 I-0.111
G00 Z1.000
G00 X63.851Y22.610
G01 Z-0.150 F30
G03 F360
X63.851Y22.610 I-0.111
G01 Z-0.300 F30
G03 F360
X63.851Y22.610 I-0.111
G01 Z-0.450 F30
G03 F360
X63.851Y22.610 I-0.111
G01 Z-0.600 F30
G03 F360
X63.851Y22.610 I-0.111
G01 Z-0.750 F30
G03 F360
X63.851Y22.610 I-0.111
G01 Z-0.900 F30
G03 F360
X63.851Y22.610 I-0.111
G01 Z-1.050 F30
G03 F360
X63.851Y22.610 I-0.111
G01 Z-1.200 F30
G03 F360
X63.851Y22.610 I-0.111
G01 Z-1.350 F30
G03 F360
X63.851Y22.610 I-0.111
G01 Z-1.500 F30
G03 F360
X63.851Y22.610 I-0.111
G01 Z-1.600 F30
G03 F360
X63.851Y22.610 I-0.111
G00 Z1.000
G00 X63.851Y25.150
G01 Z-0.150 F30
G03 F360
X63.851Y25.150 I-0.111
G01 Z-0.300 F30
G03 F360
X63.851Y25.150 I-0.111
G01 Z-0.450 F30
G03 F360
X63.851Y25.150 I-0.111
G01 Z-0.600 F30
G03 F360
X63.851Y25.150 I-0.111
G01 Z-0.750 F30
G03 F360
X63.851Y25.150 I-0.111
G01 Z-0.900 F30
G03 F360
X63.851Y25.150 I-0.111
G01 Z-1.050 F30
G03 F360
X63.851Y25.150 I-0.111
G01 Z-1.200 F30
G03 F360
X63.851Y25.150 I-0.111
G01 Z-1.350 F30
G03 F360
X63.851Y25.150 I-0.111
G01 Z-1.500 F30
G03 F360
X63.851Y25.150 I-0.111
G01 Z-1.600 F30
G03 F360
X63.851Y25.150 I-0.111
G00 Z1.000
G00 X63.851Y27.690
G01 Z-0.150 F30
G03 F360
X63.851Y27.690 I-0.111
G01 Z-0.300 F30
G03 F360
X63.851Y27.690 I-0.111
G01 Z-0.450 F30
G03 F360
X63.851Y27.690 I-0.111
G01 Z-0.600 F30
G03 F360
X63.851Y27.690 I-0.111
G01 Z-0.750 F30
G03 F360
X63.851Y27.690 I-0.111
G01 Z-0.900 F30
G03 F360
X63.851Y27.690 I-0.111
G01 Z-1.050 F30
G03 F360
X63.851Y27.690 I-0.111
G01 Z-1.200 F30
G03 F360
X63.851Y27.690 I-0.111
G01 Z-1.350 F30
G03 F360
X63.851Y27.690 I-0.111
G01 Z-1.500 F30
G03 F360
X63.851Y27.690 I-0.111
G01 Z-1.600 F30
G03 F360
X63.851Y27.690 I-0.111
G00 Z1.000
G00 X63.851Y30.230
G01 Z-0.150 F30
G03 F360
X63.851Y30.230 I-0.111
G01 Z-0.300 F30
G03 F360
X63.851Y30.230 I-0.111
G01 Z-0.450 F30
G03 F360
X63.851Y30.230 I-0.111
G01 Z-0.600 F30
G03 F360
X63.851Y30.230 I-0.111
G01 Z-0.750 F30
G03 F360
X63.851Y30.230 I-0.111
G01 Z-0.900 F30
G03 F360
X63.851Y30.230 I-0.111
G01 Z-1.050 F30
G03 F360
X63.851Y30.230 I-0.111
G01 Z-1.200 F30
G03 F360
X63.851Y30.230 I-0.111
G01 Z-1.350 F30
G03 F360
X63.851Y30.230 I-0.111
G01 Z-1.500 F30
G03 F360
X63.851Y30.230 I-0.111
G01 Z-1.600 F30
G03 F360
X63.851Y30.230 I-0.111
G00 Z1.000
G00 X63.851Y32.770
G01 Z-0.150 F30
G03 F360
X63.851Y32.770 I-0.111
G01 Z-0.300 F30
G03 F360
X63.851Y32.770 I-0.111
G01 Z-0.450 F30
G03 F360
X63.851Y32.770 I-0.111
G01 Z-0.600 F30
G03 F360
X63.851Y32.770 I-0.111
G01 Z-0.750 F30
G03 F360
X63.851Y32.770 I-0.111
G01 Z-0.900 F30
G03 F360
X63.851Y32.770 I-0.111
G01 Z-1.050 F30
G03 F360
X63.851Y32.770 I-0.111
G01 Z-1.200 F30
G03 F360
X63.851Y32.770 I-0.111
G01 Z-1.350 F30
G03 F360
X63.851Y32.770 I-0.111
G01 Z-1.500 F30
G03 F360
X63.851Y32.770 I-0.111
G01 Z-1.600 F30
G03 F360
X63.851Y32.770 I-0.111
G00 Z1.000
G00 X63.851Y35.310
G01 Z-0.150 F30
G03 F360
X63.851Y35.310 I-0.111
G01 Z-0.300 F30
G03 F360
X63.851Y35.310 I-0.111
G01 Z-0.450 F30
G03 F360
X63.851Y35.310 I-0.111
G01 Z-0.600 F30
G03 F360
X63.851Y35.310 I-0.111
G01 Z-0.750 F30
G03 F360
X63.851Y35.310 I-0.111
G01 Z-0.900 F30
G03 F360
X63.851Y35.310 I-0.111
G01 Z-1.050 F30
G03 F360
X63.851Y35.310 I-0.111
G01 Z-1.200 F30
G03 F360
X63.851Y35.310 I-0.111
G01 Z-1.350 F30
G03 F360
X63.851Y35.310 I-0.111
G01 Z-1.500 F30
G03 F360
X63.851Y35.310 I-0.111
G01 Z-1.600 F30
G03 F360
X63.851Y35.310 I-0.111
G00 Z1.000
G00 X63.851Y37.850
G01 Z-0.150 F30
G03 F360
X63.851Y37.850 I-0.111
G01 Z-0.300 F30
G03 F360
X63.851Y37.850 I-0.111
G01 Z-0.450 F30
G03 F360
X63.851Y37.850 I-0.111
G01 Z-0.600 F30
G03 F360
X63.851Y37.850 I-0.111
G01 Z-0.750 F30
G03 F360
X63.851Y37.850 I-0.111
G01 Z-0.900 F30
G03 F360
X63.851Y37.850 I-0.111
G01 Z-1.050 F30
G03 F360
X63.851Y37.850 I-0.111
G01 Z-1.200 F30
G03 F360
X63.851Y37.850 I-0.111
G01 Z-1.350 F30
G03 F360
X63.851Y37.850 I-0.111
G01 Z-1.500 F30
G03 F360
X63.851Y37.850 I-0.111
G01 Z-1.600 F30
G03 F360
X63.851Y37.850 I-0.111
G00 Z1.000
G00 X63.851Y40.390
G01 Z-0.150 F30
G03 F360
X63.851Y40.390 I-0.111
G01 Z-0.300 F30
G03 F360
X63.851Y40.390 I-0.111
G01 Z-0.450 F30
G03 F360
X63.851Y40.390 I-0.111
G01 Z-0.600 F30
G03 F360
X63.851Y40.390 I-0.111
G01 Z-0.750 F30
G03 F360
X63.851Y40.390 I-0.111
G01 Z-0.900 F30
G03 F360
X63.851Y40.390 I-0.111
G01 Z-1.050 F30
G03 F360
X63.851Y40.390 I-0.111
G01 Z-1.200 F30
G03 F360
X63.851Y40.390 I-0.111
G01 Z-1.350 F30
G03 F360
X63.851Y40.390 I-0.111
G01 Z-1.500 F30
G03 F360
X63.851Y40.390 I-0.111
G01 Z-1.600 F30
G03 F360
X63.851Y40.390 I-0.111
G00 Z1.000
G00 X63.851Y42.930
G01 Z-0.150 F30
G03 F360
X63.851Y42.930 I-0.111
G01 Z-0.300 F30
G03 F360
X63.851Y42.930 I-0.111
G01 Z-0.450 F30
G03 F360
X63.851Y42.930 I-0.111
G01 Z-0.600 F30
G03 F360
X63.851Y42.930 I-0.111
G01 Z-0.750 F30
G03 F360
X63.851Y42.930 I-0.111
G01 Z-0.900 F30
G03 F360
X63.851Y42.930 I-0.111
G01 Z-1.050 F30
G03 F360
X63.851Y42.930 I-0.111
G01 Z-1.200 F30
G03 F360
X63.851Y42.930 I-0.111
G01 Z-1.350 F30
G03 F360
X63.851Y42.930 I-0.111
G01 Z-1.500 F30
G03 F360
X63.851Y42.930 I-0.111
G01 Z-1.600 F30
G03 F360
X63.851Y42.930 I-0.111
G00 Z1.000
G00 X63.851Y45.470
G01 Z-0.150 F30
G03 F360
X63.851Y45.470 I-0.111
G01 Z-0.300 F30
G03 F360
X63.851Y45.470 I-0.111
G01 Z-0.450 F30
G03 F360
X63.851Y45.470 I-0.111
G01 Z-0.600 F30
G03 F360
X63.851Y45.470 I-0.111
G01 Z-0.750 F30
G03 F360
X63.851Y45.470 I-0.111
G01 Z-0.900 F30
G03 F360
X63.851Y45.470 I-0.111
G01 Z-1.050 F30
G03 F360
X63.851Y45.470 I-0.111
G01 Z-1.200 F30
G03 F360
X63.851Y45.470 I-0.111
G01 Z-1.350 F30
G03 F360
X63.851Y45.470 I-0.111
G01 Z-1.500 F30
G03 F360
X63.851Y45.470 I-0.111
G01 Z-1.600 F30
G03 F360
X63.851Y45.470 I-0.111
(-->HOLE IS TOO SMALL, I CAN'T CUT THAT!!)
G00 Z1.000
G00 X57.033Y6.350
G01 Z-0.150 F30
G03 F360
X57.033Y6.350 I0.000
(-->HOLE IS TOO SMALL, I CAN'T CUT THAT!!)
G01 Z-0.300 F30
G03 F360
X57.033Y6.350 I0.000
(-->HOLE IS TOO SMALL, I CAN'T CUT THAT!!)
G01 Z-0.450 F30
G03 F360
X57.033Y6.350 I0.000
(-->HOLE IS TOO SMALL, I CAN'T CUT THAT!!)
G01 Z-0.600 F30
G03 F360
X57.033Y6.350 I0.000
(-->HOLE IS TOO SMALL, I CAN'T CUT THAT!!)
G01 Z-0.750 F30
G03 F360
X57.033Y6.350 I0.000
(-->HOLE IS TOO SMALL, I CAN'T CUT THAT!!)
G01 Z-0.900 F30
G03 F360
X57.033Y6.350 I0.000
(-->HOLE IS TOO SMALL, I CAN'T CUT THAT!!)
G01 Z-1.050 F30
G03 F360
X57.033Y6.350 I0.000
(-->HOLE IS TOO SMALL, I CAN'T CUT THAT!!)
G01 Z-1.200 F30
G03 F360
X57.033Y6.350 I0.000
(-->HOLE IS TOO SMALL, I CAN'T CUT THAT!!)
G01 Z-1.350 F30
G03 F360
X57.033Y6.350 I0.000
(-->HOLE IS TOO SMALL, I CAN'T CUT THAT!!)
G01 Z-1.500 F30
G03 F360
X57.033Y6.350 I0.000
(-->HOLE IS TOO SMALL, I CAN'T CUT THAT!!)
G01 Z-1.600 F30
G03 F360
X57.033Y6.350 I0.000
(-->HOLE IS TOO SMALL, I CAN'T CUT THAT!!)
G00 Z1.000
G00 X53.223Y43.180
G01 Z-0.150 F30
G03 F360
X53.223Y43.180 I0.000
(-->HOLE IS TOO SMALL, I CAN'T CUT THAT!!)
G01 Z-0.300 F30
G03 F360
X53.223Y43.180 I0.000
(-->HOLE IS TOO SMALL, I CAN'T CUT THAT!!)
G01 Z-0.450 F30
G03 F360
X53.223Y43.180 I0.000
(-->HOLE IS TOO SMALL, I CAN'T CUT THAT!!)
G01 Z-0.600 F30
G03 F360
X53.223Y43.180 I0.000
(-->HOLE IS TOO SMALL, I CAN'T CUT THAT!!)
G01 Z-0.750 F30
G03 F360
X53.223Y43.180 I0.000
(-->HOLE IS TOO SMALL, I CAN'T CUT THAT!!)
G01 Z-0.900 F30
G03 F360
X53.223Y43.180 I0.000
(-->HOLE IS TOO SMALL, I CAN'T CUT THAT!!)
G01 Z-1.050 F30
G03 F360
X53.223Y43.180 I0.000
(-->HOLE IS TOO SMALL, I CAN'T CUT THAT!!)
G01 Z-1.200 F30
G03 F360
X53.223Y43.180 I0.000
(-->HOLE IS TOO SMALL, I CAN'T CUT THAT!!)
G01 Z-1.350 F30
G03 F360
X53.223Y43.180 I0.000
(-->HOLE IS TOO SMALL, I CAN'T CUT THAT!!)
G01 Z-1.500 F30
G03 F360
X53.223Y43.180 I0.000
(-->HOLE IS TOO SMALL, I CAN'T CUT THAT!!)
G01 Z-1.600 F30
G03 F360
X53.223Y43.180 I0.000
(-->HOLE IS TOO SMALL, I CAN'T CUT THAT!!)
G00 Z1.000
G00 X20.203Y25.400
G01 Z-0.150 F30
G03 F360
X20.203Y25.400 I0.000
(-->HOLE IS TOO SMALL, I CAN'T CUT THAT!!)
G01 Z-0.300 F30
G03 F360
X20.203Y25.400 I0.000
(-->HOLE IS TOO SMALL, I CAN'T CUT THAT!!)
G01 Z-0.450 F30
G03 F360
X20.203Y25.400 I0.000
(-->HOLE IS TOO SMALL, I CAN'T CUT THAT!!)
G01 Z-0.600 F30
G03 F360
X20.203Y25.400 I0.000
(-->HOLE IS TOO SMALL, I CAN'T CUT THAT!!)
G01 Z-0.750 F30
G03 F360
X20.203Y25.400 I0.000
(-->HOLE IS TOO SMALL, I CAN'T CUT THAT!!)
G01 Z-0.900 F30
G03 F360
X20.203Y25.400 I0.000
(-->HOLE IS TOO SMALL, I CAN'T CUT THAT!!)
G01 Z-1.050 F30
G03 F360
X20.203Y25.400 I0.000
(-->HOLE IS TOO SMALL, I CAN'T CUT THAT!!)
G01 Z-1.200 F30
G03 F360
X20.203Y25.400 I0.000
(-->HOLE IS TOO SMALL, I CAN'T CUT THAT!!)
G01 Z-1.350 F30
G03 F360
X20.203Y25.400 I0.000
(-->HOLE IS TOO SMALL, I CAN'T CUT THAT!!)
G01 Z-1.500 F30
G03 F360
X20.203Y25.400 I0.000
(-->HOLE IS TOO SMALL, I CAN'T CUT THAT!!)
G01 Z-1.600 F30
G03 F360
X20.203Y25.400 I0.000
(-->HOLE IS TOO SMALL, I CAN'T CUT THAT!!)
G00 Z1.000
G00 X36.713Y32.385
G01 Z-0.150 F30
G03 F360
X36.713Y32.385 I0.000
(-->HOLE IS TOO SMALL, I CAN'T CUT THAT!!)
G01 Z-0.300 F30
G03 F360
X36.713Y32.385 I0.000
(-->HOLE IS TOO SMALL, I CAN'T CUT THAT!!)
G01 Z-0.450 F30
G03 F360
X36.713Y32.385 I0.000
(-->HOLE IS TOO SMALL, I CAN'T CUT THAT!!)
G01 Z-0.600 F30
G03 F360
X36.713Y32.385 I0.000
(-->HOLE IS TOO SMALL, I CAN'T CUT THAT!!)
G01 Z-0.750 F30
G03 F360
X36.713Y32.385 I0.000
(-->HOLE IS TOO SMALL, I CAN'T CUT THAT!!)
G01 Z-0.900 F30
G03 F360
X36.713Y32.385 I0.000
(-->HOLE IS TOO SMALL, I CAN'T CUT THAT!!)
G01 Z-1.050 F30
G03 F360
X36.713Y32.385 I0.000
(-->HOLE IS TOO SMALL, I CAN'T CUT THAT!!)
G01 Z-1.200 F30
G03 F360
X36.713Y32.385 I0.000
(-->HOLE IS TOO SMALL, I CAN'T CUT THAT!!)
G01 Z-1.350 F30
G03 F360
X36.713Y32.385 I0.000
(-->HOLE IS TOO SMALL, I CAN'T CUT THAT!!)
G01 Z-1.500 F30
G03 F360
X36.713Y32.385 I0.000
(-->HOLE IS TOO SMALL, I CAN'T CUT THAT!!)
G01 Z-1.600 F30
G03 F360
X36.713Y32.385 I0.000
(-->HOLE IS TOO SMALL, I CAN'T CUT THAT!!)
G00 Z1.000
G00 X6.233Y3.175
G01 Z-0.150 F30
G03 F360
X6.233Y3.175 I0.000
(-->HOLE IS TOO SMALL, I CAN'T CUT THAT!!)
G01 Z-0.300 F30
G03 F360
X6.233Y3.175 I0.000
(-->HOLE IS TOO SMALL, I CAN'T CUT THAT!!)
G01 Z-0.450 F30
G03 F360
X6.233Y3.175 I0.000
(-->HOLE IS TOO SMALL, I CAN'T CUT THAT!!)
G01 Z-0.600 F30
G03 F360
X6.233Y3.175 I0.000
(-->HOLE IS TOO SMALL, I CAN'T CUT THAT!!)
G01 Z-0.750 F30
G03 F360
X6.233Y3.175 I0.000
(-->HOLE IS TOO SMALL, I CAN'T CUT THAT!!)
G01 Z-0.900 F30
G03 F360
X6.233Y3.175 I0.000
(-->HOLE IS TOO SMALL, I CAN'T CUT THAT!!)
G01 Z-1.050 F30
G03 F360
X6.233Y3.175 I0.000
(-->HOLE IS TOO SMALL, I CAN'T CUT THAT!!)
G01 Z-1.200 F30
G03 F360
X6.233Y3.175 I0.000
(-->HOLE IS TOO SMALL, I CAN'T CUT THAT!!)
G01 Z-1.350 F30
G03 F360
X6.233Y3.175 I0.000
(-->HOLE IS TOO SMALL, I CAN'T CUT THAT!!)
G01 Z-1.500 F30
G03 F360
X6.233Y3.175 I0.000
(-->HOLE IS TOO SMALL, I CAN'T CUT THAT!!)
G01 Z-1.600 F30
G03 F360
X6.233Y3.175 I0.000
(-->HOLE IS TOO SMALL, I CAN'T CUT THAT!!)
G00 Z1.000
G00 X24.013Y7.620
G01 Z-0.150 F30
G03 F360
X24.013Y7.620 I0.000
(-->HOLE IS TOO SMALL, I CAN'T CUT THAT!!)
G01 Z-0.300 F30
G03 F360
X24.013Y7.620 I0.000
(-->HOLE IS TOO SMALL, I CAN'T CUT THAT!!)
G01 Z-0.450 F30
G03 F360
X24.013Y7.620 I0.000
(-->HOLE IS TOO SMALL, I CAN'T CUT THAT!!)
G01 Z-0.600 F30
G03 F360
X24.013Y7.620 I0.000
(-->HOLE IS TOO SMALL, I CAN'T CUT THAT!!)
G01 Z-0.750 F30
G03 F360
X24.013Y7.620 I0.000
(-->HOLE IS TOO SMALL, I CAN'T CUT THAT!!)
G01 Z-0.900 F30
G03 F360
X24.013Y7.620 I0.000
(-->HOLE IS TOO SMALL, I CAN'T CUT THAT!!)
G01 Z-1.050 F30
G03 F360
X24.013Y7.620 I0.000
(-->HOLE IS TOO SMALL, I CAN'T CUT THAT!!)
G01 Z-1.200 F30
G03 F360
X24.013Y7.620 I0.000
(-->HOLE IS TOO SMALL, I CAN'T CUT THAT!!)
G01 Z-1.350 F30
G03 F360
X24.013Y7.620 I0.000
(-->HOLE IS TOO SMALL, I CAN'T CUT THAT!!)
G01 Z-1.500 F30
G03 F360
X24.013Y7.620 I0.000
(-->HOLE IS TOO SMALL, I CAN'T CUT THAT!!)
G01 Z-1.600 F30
G03 F360
X24.013Y7.620 I0.000
(-->HOLE IS TOO SMALL, I CAN'T CUT THAT!!)
G00 Z1.000
G00 X20.838Y6.350
G01 Z-0.150 F30
G03 F360
X20.838Y6.350 I0.000
(-->HOLE IS TOO SMALL, I CAN'T CUT THAT!!)
G01 Z-0.300 F30
G03 F360
X20.838Y6.350 I0.000
(-->HOLE IS TOO SMALL, I CAN'T CUT THAT!!)
G01 Z-0.450 F30
G03 F360
X20.838Y6.350 I0.000
(-->HOLE IS TOO SMALL, I CAN'T CUT THAT!!)
G01 Z-0.600 F30
G03 F360
X20.838Y6.350 I0.000
(-->HOLE IS TOO SMALL, I CAN'T CUT THAT!!)
G01 Z-0.750 F30
G03 F360
X20.838Y6.350 I0.000
(-->HOLE IS TOO SMALL, I CAN'T CUT THAT!!)
G01 Z-0.900 F30
G03 F360
X20.838Y6.350 I0.000
(-->HOLE IS TOO SMALL, I CAN'T CUT THAT!!)
G01 Z-1.050 F30
G03 F360
X20.838Y6.350 I0.000
(-->HOLE IS TOO SMALL, I CAN'T CUT THAT!!)
G01 Z-1.200 F30
G03 F360
X20.838Y6.350 I0.000
(-->HOLE IS TOO SMALL, I CAN'T CUT THAT!!)
G01 Z-1.350 F30
G03 F360
X20.838Y6.350 I0.000
(-->HOLE IS TOO SMALL, I CAN'T CUT THAT!!)
G01 Z-1.500 F30
G03 F360
X20.838Y6.350 I0.000
(-->HOLE IS TOO SMALL, I CAN'T CUT THAT!!)
G01 Z-1.600 F30
G03 F360
X20.838Y6.350 I0.000
(-->HOLE IS TOO SMALL, I CAN'T CUT THAT!!)
G00 Z1.000
G00 X10.678Y48.260
G01 Z-0.150 F30
G03 F360
X10.678Y48.260 I0.000
(-->HOLE IS TOO SMALL, I CAN'T CUT THAT!!)
G01 Z-0.300 F30
G03 F360
X10.678Y48.260 I0.000
(-->HOLE IS TOO SMALL, I CAN'T CUT THAT!!)
G01 Z-0.450 F30
G03 F360
X10.678Y48.260 I0.000
(-->HOLE IS TOO SMALL, I CAN'T CUT THAT!!)
G01 Z-0.600 F30
G03 F360
X10.678Y48.260 I0.000
(-->HOLE IS TOO SMALL, I CAN'T CUT THAT!!)
G01 Z-0.750 F30
G03 F360
X10.678Y48.260 I0.000
(-->HOLE IS TOO SMALL, I CAN'T CUT THAT!!)
G01 Z-0.900 F30
G03 F360
X10.678Y48.260 I0.000
(-->HOLE IS TOO SMALL, I CAN'T CUT THAT!!)
G01 Z-1.050 F30
G03 F360
X10.678Y48.260 I0.000
(-->HOLE IS TOO SMALL, I CAN'T CUT THAT!!)
G01 Z-1.200 F30
G03 F360
X10.678Y48.260 I0.000
(-->HOLE IS TOO SMALL, I CAN'T CUT THAT!!)
G01 Z-1.350 F30
G03 F360
X10.678Y48.260 I0.000
(-->HOLE IS TOO SMALL, I CAN'T CUT THAT!!)
G01 Z-1.500 F30
G03 F360
X10.678Y48.260 I0.000
(-->HOLE IS TOO SMALL, I CAN'T CUT THAT!!)
G01 Z-1.600 F30
G03 F360
X10.678Y48.260 I0.000
G00 Z1.000
M05
G04 P4000
G00 X0Y0
