(RS-274 Compatible G-code generated for UCCNC controller and Stepcraft 2 Mill)
(Created by in EagleCAD with the stepcraft.ulp 0.2.)
(File: was created on: 7/9/16 11:26 AM)
SHRINK_WIDTH: 0.070000

G90 G94 G49
G00 Z5.000
G00 X23.220 Y43.975 F1500
G00 Z0.000 F500
G01 X23.220 Y43.975 F1500
G01 X21.930 Y43.975 F1500
G01 X21.930 Y42.385 F1500
G01 X23.220 Y42.385 F1500
G01 X23.220 Y43.975 F1500
G00 Z1.000 F500
G00 X23.220 Y43.975 F1500
G00 Z0.000 F500
G01 X23.220 Y43.975 F1500
G01 X21.930 Y43.975 F1500
G01 X21.930 Y42.385 F1500
G01 X23.220 Y42.385 F1500
G01 X23.220 Y43.975 F1500
G00 Z1.000 F500

G00 X25.020 Y43.975 F1500
G00 Z0.000 F500
G01 X25.020 Y43.975 F1500
G01 X23.730 Y43.975 F1500
G01 X23.730 Y42.385 F1500
G01 X25.020 Y42.385 F1500
G01 X25.020 Y43.975 F1500
G00 Z1.000 F500
G00 X25.020 Y43.975 F1500
G00 Z0.000 F500
G01 X25.020 Y43.975 F1500
G01 X23.730 Y43.975 F1500
G01 X23.730 Y42.385 F1500
G01 X25.020 Y42.385 F1500
G01 X25.020 Y43.975 F1500
G00 Z1.000 F500

G00 X22.585 Y41.210 F1500
G00 Z0.000 F500
G01 X22.585 Y41.210 F1500
G01 X21.495 Y41.210 F1500
G01 X21.495 Y40.070 F1500
G01 X22.585 Y40.070 F1500
G01 X22.585 Y41.210 F1500
G00 Z1.000 F500
G00 X22.585 Y41.210 F1500
G00 Z0.000 F500
G01 X22.585 Y41.210 F1500
G01 X21.495 Y41.210 F1500
G01 X21.495 Y40.070 F1500
G01 X22.585 Y40.070 F1500
G01 X22.585 Y41.210 F1500
G00 Z1.000 F500

G00 X24.185 Y41.210 F1500
G00 Z0.000 F500
G01 X24.185 Y41.210 F1500
G01 X23.095 Y41.210 F1500
G01 X23.095 Y40.070 F1500
G01 X24.185 Y40.070 F1500
G01 X24.185 Y41.210 F1500
G00 Z1.000 F500
G00 X24.185 Y41.210 F1500
G00 Z0.000 F500
G01 X24.185 Y41.210 F1500
G01 X23.095 Y41.210 F1500
G01 X23.095 Y40.070 F1500
G01 X24.185 Y40.070 F1500
G01 X24.185 Y41.210 F1500
G00 Z1.000 F500

G00 X22.585 Y46.290 F1500
G00 Z0.000 F500
G01 X22.585 Y46.290 F1500
G01 X21.495 Y46.290 F1500
G01 X21.495 Y45.150 F1500
G01 X22.585 Y45.150 F1500
G01 X22.585 Y46.290 F1500
G00 Z1.000 F500
G00 X22.585 Y46.290 F1500
G00 Z0.000 F500
G01 X22.585 Y46.290 F1500
G01 X21.495 Y46.290 F1500
G01 X21.495 Y45.150 F1500
G01 X22.585 Y45.150 F1500
G01 X22.585 Y46.290 F1500
G00 Z1.000 F500

G00 X24.185 Y46.290 F1500
G00 Z0.000 F500
G01 X24.185 Y46.290 F1500
G01 X23.095 Y46.290 F1500
G01 X23.095 Y45.150 F1500
G01 X24.185 Y45.150 F1500
G01 X24.185 Y46.290 F1500
G00 Z1.000 F500
G00 X24.185 Y46.290 F1500
G00 Z0.000 F500
G01 X24.185 Y46.290 F1500
G01 X23.095 Y46.290 F1500
G01 X23.095 Y45.150 F1500
G01 X24.185 Y45.150 F1500
G01 X24.185 Y46.290 F1500
G00 Z1.000 F500

G00 X13.380 Y44.195 F1500
G00 Z0.000 F500
G01 X13.380 Y44.195 F1500
G01 X13.380 Y43.105 F1500
G01 X14.520 Y43.105 F1500
G01 X14.520 Y44.195 F1500
G01 X13.380 Y44.195 F1500
G00 Z1.000 F500
G00 X13.380 Y44.195 F1500
G00 Z0.000 F500
G01 X13.380 Y44.195 F1500
G01 X13.380 Y43.105 F1500
G01 X14.520 Y43.105 F1500
G01 X14.520 Y44.195 F1500
G01 X13.380 Y44.195 F1500
G00 Z1.000 F500

G00 X13.380 Y45.795 F1500
G00 Z0.000 F500
G01 X13.380 Y45.795 F1500
G01 X13.380 Y44.705 F1500
G01 X14.520 Y44.705 F1500
G01 X14.520 Y45.795 F1500
G01 X13.380 Y45.795 F1500
G00 Z1.000 F500
G00 X13.380 Y45.795 F1500
G00 Z0.000 F500
G01 X13.380 Y45.795 F1500
G01 X13.380 Y44.705 F1500
G01 X14.520 Y44.705 F1500
G01 X14.520 Y45.795 F1500
G01 X13.380 Y45.795 F1500
G00 Z1.000 F500

G00 X23.540 Y68.960 F1500
G00 Z0.000 F500
G01 X23.540 Y68.960 F1500
G01 X23.540 Y67.870 F1500
G01 X24.680 Y67.870 F1500
G01 X24.680 Y68.960 F1500
G01 X23.540 Y68.960 F1500
G00 Z1.000 F500
G00 X23.540 Y68.960 F1500
G00 Z0.000 F500
G01 X23.540 Y68.960 F1500
G01 X23.540 Y67.870 F1500
G01 X24.680 Y67.870 F1500
G01 X24.680 Y68.960 F1500
G01 X23.540 Y68.960 F1500
G00 Z1.000 F500

G00 X23.540 Y70.560 F1500
G00 Z0.000 F500
G01 X23.540 Y70.560 F1500
G01 X23.540 Y69.470 F1500
G01 X24.680 Y69.470 F1500
G01 X24.680 Y70.560 F1500
G01 X23.540 Y70.560 F1500
G00 Z1.000 F500
G00 X23.540 Y70.560 F1500
G00 Z0.000 F500
G01 X23.540 Y70.560 F1500
G01 X23.540 Y69.470 F1500
G01 X24.680 Y69.470 F1500
G01 X24.680 Y70.560 F1500
G01 X23.540 Y70.560 F1500
G00 Z1.000 F500

G00 X18.460 Y68.960 F1500
G00 Z0.000 F500
G01 X18.460 Y68.960 F1500
G01 X18.460 Y67.870 F1500
G01 X19.600 Y67.870 F1500
G01 X19.600 Y68.960 F1500
G01 X18.460 Y68.960 F1500
G00 Z1.000 F500
G00 X18.460 Y68.960 F1500
G00 Z0.000 F500
G01 X18.460 Y68.960 F1500
G01 X18.460 Y67.870 F1500
G01 X19.600 Y67.870 F1500
G01 X19.600 Y68.960 F1500
G01 X18.460 Y68.960 F1500
G00 Z1.000 F500

G00 X18.460 Y70.560 F1500
G00 Z0.000 F500
G01 X18.460 Y70.560 F1500
G01 X18.460 Y69.470 F1500
G01 X19.600 Y69.470 F1500
G01 X19.600 Y70.560 F1500
G01 X18.460 Y70.560 F1500
G00 Z1.000 F500
G00 X18.460 Y70.560 F1500
G00 Z0.000 F500
G01 X18.460 Y70.560 F1500
G01 X18.460 Y69.470 F1500
G01 X19.600 Y69.470 F1500
G01 X19.600 Y70.560 F1500
G01 X18.460 Y70.560 F1500
G00 Z1.000 F500

G00 X22.460 Y47.690 F1500
G00 Z0.000 F500
G01 X22.460 Y47.690 F1500
G01 X23.550 Y47.690 F1500
G01 X23.550 Y48.830 F1500
G01 X22.460 Y48.830 F1500
G01 X22.460 Y47.690 F1500
G00 Z1.000 F500
G00 X22.460 Y47.690 F1500
G00 Z0.000 F500
G01 X22.460 Y47.690 F1500
G01 X23.550 Y47.690 F1500
G01 X23.550 Y48.830 F1500
G01 X22.460 Y48.830 F1500
G01 X22.460 Y47.690 F1500
G00 Z1.000 F500

G00 X20.860 Y47.690 F1500
G00 Z0.000 F500
G01 X20.860 Y47.690 F1500
G01 X21.950 Y47.690 F1500
G01 X21.950 Y48.830 F1500
G01 X20.860 Y48.830 F1500
G01 X20.860 Y47.690 F1500
G00 Z1.000 F500
G00 X20.860 Y47.690 F1500
G00 Z0.000 F500
G01 X20.860 Y47.690 F1500
G01 X21.950 Y47.690 F1500
G01 X21.950 Y48.830 F1500
G01 X20.860 Y48.830 F1500
G01 X20.860 Y47.690 F1500
G00 Z1.000 F500

G00 X16.110 Y47.690 F1500
G00 Z0.000 F500
G01 X16.110 Y47.690 F1500
G01 X17.200 Y47.690 F1500
G01 X17.200 Y48.830 F1500
G01 X16.110 Y48.830 F1500
G01 X16.110 Y47.690 F1500
G00 Z1.000 F500
G00 X16.110 Y47.690 F1500
G00 Z0.000 F500
G01 X16.110 Y47.690 F1500
G01 X17.200 Y47.690 F1500
G01 X17.200 Y48.830 F1500
G01 X16.110 Y48.830 F1500
G01 X16.110 Y47.690 F1500
G00 Z1.000 F500

G00 X14.510 Y47.690 F1500
G00 Z0.000 F500
G01 X14.510 Y47.690 F1500
G01 X15.600 Y47.690 F1500
G01 X15.600 Y48.830 F1500
G01 X14.510 Y48.830 F1500
G01 X14.510 Y47.690 F1500
G00 Z1.000 F500
G00 X14.510 Y47.690 F1500
G00 Z0.000 F500
G01 X14.510 Y47.690 F1500
G01 X15.600 Y47.690 F1500
G01 X15.600 Y48.830 F1500
G01 X14.510 Y48.830 F1500
G01 X14.510 Y47.690 F1500
G00 Z1.000 F500

G00 X9.760 Y41.340 F1500
G00 Z0.000 F500
G01 X9.760 Y41.340 F1500
G01 X10.850 Y41.340 F1500
G01 X10.850 Y42.480 F1500
G01 X9.760 Y42.480 F1500
G01 X9.760 Y41.340 F1500
G00 Z1.000 F500
G00 X9.760 Y41.340 F1500
G00 Z0.000 F500
G01 X9.760 Y41.340 F1500
G01 X10.850 Y41.340 F1500
G01 X10.850 Y42.480 F1500
G01 X9.760 Y42.480 F1500
G01 X9.760 Y41.340 F1500
G00 Z1.000 F500

G00 X8.160 Y41.340 F1500
G00 Z0.000 F500
G01 X8.160 Y41.340 F1500
G01 X9.250 Y41.340 F1500
G01 X9.250 Y42.480 F1500
G01 X8.160 Y42.480 F1500
G01 X8.160 Y41.340 F1500
G00 Z1.000 F500
G00 X8.160 Y41.340 F1500
G00 Z0.000 F500
G01 X8.160 Y41.340 F1500
G01 X9.250 Y41.340 F1500
G01 X9.250 Y42.480 F1500
G01 X8.160 Y42.480 F1500
G01 X8.160 Y41.340 F1500
G00 Z1.000 F500

G00 X13.252 Y40.705 F1500
G00 Z0.000 F500
G01 X13.252 Y40.705 F1500
G01 X14.342 Y40.705 F1500
G01 X14.342 Y41.845 F1500
G01 X13.252 Y41.845 F1500
G01 X13.252 Y40.705 F1500
G00 Z1.000 F500
G00 X13.252 Y40.705 F1500
G00 Z0.000 F500
G01 X13.252 Y40.705 F1500
G01 X14.342 Y40.705 F1500
G01 X14.342 Y41.845 F1500
G01 X13.252 Y41.845 F1500
G01 X13.252 Y40.705 F1500
G00 Z1.000 F500

G00 X11.652 Y40.705 F1500
G00 Z0.000 F500
G01 X11.652 Y40.705 F1500
G01 X12.742 Y40.705 F1500
G01 X12.742 Y41.845 F1500
G01 X11.652 Y41.845 F1500
G01 X11.652 Y40.705 F1500
G00 Z1.000 F500
G00 X11.652 Y40.705 F1500
G00 Z0.000 F500
G01 X11.652 Y40.705 F1500
G01 X12.742 Y40.705 F1500
G01 X12.742 Y41.845 F1500
G01 X11.652 Y41.845 F1500
G01 X11.652 Y40.705 F1500
G00 Z1.000 F500

G00 X58.020 Y8.320 F1500
G00 Z0.000 F500
G01 X58.020 Y8.320 F1500
G01 X59.110 Y8.320 F1500
G01 X59.110 Y9.460 F1500
G01 X58.020 Y9.460 F1500
G01 X58.020 Y8.320 F1500
G00 Z1.000 F500
G00 X58.020 Y8.320 F1500
G00 Z0.000 F500
G01 X58.020 Y8.320 F1500
G01 X59.110 Y8.320 F1500
G01 X59.110 Y9.460 F1500
G01 X58.020 Y9.460 F1500
G01 X58.020 Y8.320 F1500
G00 Z1.000 F500

G00 X56.420 Y8.320 F1500
G00 Z0.000 F500
G01 X56.420 Y8.320 F1500
G01 X57.510 Y8.320 F1500
G01 X57.510 Y9.460 F1500
G01 X56.420 Y9.460 F1500
G01 X56.420 Y8.320 F1500
G00 Z1.000 F500
G00 X56.420 Y8.320 F1500
G00 Z0.000 F500
G01 X56.420 Y8.320 F1500
G01 X57.510 Y8.320 F1500
G01 X57.510 Y9.460 F1500
G01 X56.420 Y9.460 F1500
G01 X56.420 Y8.320 F1500
G00 Z1.000 F500

G00 X56.115 Y10.860 F1500
G00 Z0.000 F500
G01 X56.115 Y10.860 F1500
G01 X57.205 Y10.860 F1500
G01 X57.205 Y12.000 F1500
G01 X56.115 Y12.000 F1500
G01 X56.115 Y10.860 F1500
G00 Z1.000 F500
G00 X56.115 Y10.860 F1500
G00 Z0.000 F500
G01 X56.115 Y10.860 F1500
G01 X57.205 Y10.860 F1500
G01 X57.205 Y12.000 F1500
G01 X56.115 Y12.000 F1500
G01 X56.115 Y10.860 F1500
G00 Z1.000 F500

G00 X54.515 Y10.860 F1500
G00 Z0.000 F500
G01 X54.515 Y10.860 F1500
G01 X55.605 Y10.860 F1500
G01 X55.605 Y12.000 F1500
G01 X54.515 Y12.000 F1500
G01 X54.515 Y10.860 F1500
G00 Z1.000 F500
G00 X54.515 Y10.860 F1500
G00 Z0.000 F500
G01 X54.515 Y10.860 F1500
G01 X55.605 Y10.860 F1500
G01 X55.605 Y12.000 F1500
G01 X54.515 Y12.000 F1500
G01 X54.515 Y10.860 F1500
G00 Z1.000 F500

G00 X59.290 Y42.610 F1500
G00 Z0.000 F500
G01 X59.290 Y42.610 F1500
G01 X60.380 Y42.610 F1500
G01 X60.380 Y43.750 F1500
G01 X59.290 Y43.750 F1500
G01 X59.290 Y42.610 F1500
G00 Z1.000 F500
G00 X59.290 Y42.610 F1500
G00 Z0.000 F500
G01 X59.290 Y42.610 F1500
G01 X60.380 Y42.610 F1500
G01 X60.380 Y43.750 F1500
G01 X59.290 Y43.750 F1500
G01 X59.290 Y42.610 F1500
G00 Z1.000 F500

G00 X57.690 Y42.610 F1500
G00 Z0.000 F500
G01 X57.690 Y42.610 F1500
G01 X58.780 Y42.610 F1500
G01 X58.780 Y43.750 F1500
G01 X57.690 Y43.750 F1500
G01 X57.690 Y42.610 F1500
G00 Z1.000 F500
G00 X57.690 Y42.610 F1500
G00 Z0.000 F500
G01 X57.690 Y42.610 F1500
G01 X58.780 Y42.610 F1500
G01 X58.780 Y43.750 F1500
G01 X57.690 Y43.750 F1500
G01 X57.690 Y42.610 F1500
G00 Z1.000 F500

G00 X20.649 Y44.482 F1500
G00 Z0.000 F500
G01 X20.649 Y44.482 F1500
G01 X20.649 Y46.603 F1500
G01 X19.950 Y46.603 F1500
G01 X19.950 Y44.482 F1500
G01 X20.649 Y44.482 F1500
G00 Z1.000 F500
G00 X20.649 Y44.482 F1500
G00 Z0.000 F500
G01 X20.649 Y44.482 F1500
G01 X20.649 Y46.603 F1500
G01 X19.950 Y46.603 F1500
G01 X19.950 Y44.482 F1500
G01 X20.649 Y44.482 F1500
G00 Z1.000 F500

G00 X19.379 Y44.482 F1500
G00 Z0.000 F500
G01 X19.379 Y44.482 F1500
G01 X19.379 Y46.603 F1500
G01 X18.680 Y46.603 F1500
G01 X18.680 Y44.482 F1500
G01 X19.379 Y44.482 F1500
G00 Z1.000 F500
G00 X19.379 Y44.482 F1500
G00 Z0.000 F500
G01 X19.379 Y44.482 F1500
G01 X19.379 Y46.603 F1500
G01 X18.680 Y46.603 F1500
G01 X18.680 Y44.482 F1500
G01 X19.379 Y44.482 F1500
G00 Z1.000 F500

G00 X18.109 Y44.482 F1500
G00 Z0.000 F500
G01 X18.109 Y44.482 F1500
G01 X18.109 Y46.603 F1500
G01 X17.410 Y46.603 F1500
G01 X17.410 Y44.482 F1500
G01 X18.109 Y44.482 F1500
G00 Z1.000 F500
G00 X18.109 Y44.482 F1500
G00 Z0.000 F500
G01 X18.109 Y44.482 F1500
G01 X18.109 Y46.603 F1500
G01 X17.410 Y46.603 F1500
G01 X17.410 Y44.482 F1500
G01 X18.109 Y44.482 F1500
G00 Z1.000 F500

G00 X16.839 Y44.482 F1500
G00 Z0.000 F500
G01 X16.839 Y44.482 F1500
G01 X16.839 Y46.603 F1500
G01 X16.140 Y46.603 F1500
G01 X16.140 Y44.482 F1500
G01 X16.839 Y44.482 F1500
G00 Z1.000 F500
G00 X16.839 Y44.482 F1500
G00 Z0.000 F500
G01 X16.839 Y44.482 F1500
G01 X16.839 Y46.603 F1500
G01 X16.140 Y46.603 F1500
G01 X16.140 Y44.482 F1500
G01 X16.839 Y44.482 F1500
G00 Z1.000 F500

G00 X16.839 Y39.757 F1500
G00 Z0.000 F500
G01 X16.839 Y39.757 F1500
G01 X16.839 Y41.878 F1500
G01 X16.140 Y41.878 F1500
G01 X16.140 Y39.757 F1500
G01 X16.839 Y39.757 F1500
G00 Z1.000 F500
G00 X16.839 Y39.757 F1500
G00 Z0.000 F500
G01 X16.839 Y39.757 F1500
G01 X16.839 Y41.878 F1500
G01 X16.140 Y41.878 F1500
G01 X16.140 Y39.757 F1500
G01 X16.839 Y39.757 F1500
G00 Z1.000 F500

G00 X18.109 Y39.757 F1500
G00 Z0.000 F500
G01 X18.109 Y39.757 F1500
G01 X18.109 Y41.878 F1500
G01 X17.410 Y41.878 F1500
G01 X17.410 Y39.757 F1500
G01 X18.109 Y39.757 F1500
G00 Z1.000 F500
G00 X18.109 Y39.757 F1500
G00 Z0.000 F500
G01 X18.109 Y39.757 F1500
G01 X18.109 Y41.878 F1500
G01 X17.410 Y41.878 F1500
G01 X17.410 Y39.757 F1500
G01 X18.109 Y39.757 F1500
G00 Z1.000 F500

G00 X19.379 Y39.757 F1500
G00 Z0.000 F500
G01 X19.379 Y39.757 F1500
G01 X19.379 Y41.878 F1500
G01 X18.680 Y41.878 F1500
G01 X18.680 Y39.757 F1500
G01 X19.379 Y39.757 F1500
G00 Z1.000 F500
G00 X19.379 Y39.757 F1500
G00 Z0.000 F500
G01 X19.379 Y39.757 F1500
G01 X19.379 Y41.878 F1500
G01 X18.680 Y41.878 F1500
G01 X18.680 Y39.757 F1500
G01 X19.379 Y39.757 F1500
G00 Z1.000 F500

G00 X20.649 Y39.757 F1500
G00 Z0.000 F500
G01 X20.649 Y39.757 F1500
G01 X20.649 Y41.878 F1500
G01 X19.950 Y41.878 F1500
G01 X19.950 Y39.757 F1500
G01 X20.649 Y39.757 F1500
G00 Z1.000 F500
G00 X20.649 Y39.757 F1500
G00 Z0.000 F500
G01 X20.649 Y39.757 F1500
G01 X20.649 Y41.878 F1500
G01 X19.950 Y41.878 F1500
G01 X19.950 Y39.757 F1500
G01 X20.649 Y39.757 F1500
G00 Z1.000 F500

G00 Z5.000
G00 X0Y0