(RS-274 Compatible G-code generated for UCCNC controller and Stepcraft 2 Mill)
(Created by in EagleCAD with the stepcraft.ulp 0.2.)
(File: "CD_CONTROL_BRD.brd" created on: 7/9/16 11:33 AM)
(Use a V Bit)

G90 G94 G49
G21
G00 Z5
G00 X0Y0
S19500 M03
G04 P4000
G00 Z1.000
G00 X21.570Y39.053
G01 Z-0.070 F500
G01 X21.887Y39.370 F1500
G01 X22.840Y39.370 F1500
G01 X22.840Y41.275 F1500
G01 X23.475Y41.910 F1500
G01 X23.475Y43.815 F1500
G01 X22.840Y44.450 F1500
G01 X22.840Y46.672 F1500
G01 X22.522Y46.990 F1500
G01 X22.205Y46.990 F1500
G01 X19.665Y46.990 F1500
G01 X19.665Y43.815 F1500
G01 X19.665Y39.688 F1500
G01 X19.347Y39.370 F1500
G01 X18.395Y39.370 F1500
G01 X17.125Y39.370 F1500
G01 X15.855Y39.370 F1500
G01 X14.902Y38.418 F1500
G00 Z1.000
G00 X22.205Y46.990
G01 Z-0.070 F500
G01 X22.205Y49.530 F1500
G01 X15.855Y49.530 F1500
G01 X15.855Y46.990 F1500
G01 X17.125Y46.990 F1500
G01 X18.395Y46.990 F1500
G01 X18.395Y43.815 F1500
G01 X19.665Y43.815 F1500
G00 Z1.000
G00 X15.855Y49.530
G01 Z-0.070 F500
G01 X12.045Y49.530 F1500
G01 X11.410Y50.165 F1500
G01 X9.505Y50.165 F1500
G01 X9.505Y46.990 F1500
G01 X15.855Y46.990 F1500
G00 Z1.000
G00 X12.045Y44.450
G01 Z-0.070 F500
G01 X15.537Y44.450 F1500
G01 X16.172Y43.815 F1500
G01 X17.125Y43.815 F1500
G01 X18.395Y43.815 F1500
G00 Z1.000
G00 X17.125Y46.990
G01 Z-0.070 F500
G01 X17.125Y43.815 F1500
G00 Z1.000
G00 X17.125Y39.370
G01 Z-0.070 F500
G01 X17.125Y42.545 F1500
G01 X13.315Y42.545 F1500
G01 X12.997Y42.227 F1500
G00 Z1.000
G00 X18.395Y39.370
G01 Z-0.070 F500
G01 X18.395Y41.910 F1500
