(RS-274 Compatible G-code generated for UCCNC controller and Stepcraft 2 Mill)
(Created by in EagleCAD with the stepcraft.ulp 0.2.)
(File: "CD_Diode_Bleed_Resistor_brd.brd" created on: 7/7/2016 2:37 PM)
(Use a V Bit)

G90 G94 G49
G21
G00 Z5
G00 X0Y0
S19500 M03
G04 P4000
G00 Z1.000
G00 X0.000Y26.035
G01 Z-0.070 F500
G01 X29.210Y26.035 F1500
G01 X29.210Y28.575 F1500
G01 X3.810Y28.575 F1500
G01 X3.810Y31.433 F1500
G01 X3.810Y33.020 F1500
G01 X4.763Y33.973 F1500
G01 X9.525Y33.973 F1500
G01 X9.525Y36.830 F1500
G01 X0.000Y36.830 F1500
G00 Z1.000
G00 X9.525Y33.973
G01 Z-0.070 F500
G01 X9.525Y33.020 F1500
G01 X9.525Y31.433 F1500
G01 X3.810Y31.433 F1500
G00 Z1.000
G00 X9.525Y33.020
G01 Z-0.070 F500
G01 X45.403Y33.020 F1500
