(RS-274 Compatible G-code generated for UCCNC controller and Stepcraft 2 Mill)
(Created by in EagleCAD with the stepcraft.ulp 0.2.)
(File: "CD_Diode_Bleed_Resistor_brd.brd" created on: 7/7/2016 2:37 PM)
(Use a 1/32inch Bit)

G90 G94 G49
G21
G00 Z5
G00 X0Y0
S19500 M03
G04 P4000
G00 Z1.000
G00 X7.096Y30.163
G01 Z-0.150 F30
G03 F360
X7.096Y30.163 I-0.111
G01 Z-0.300 F30
G03 F360
X7.096Y30.163 I-0.111
G01 Z-0.450 F30
G03 F360
X7.096Y30.163 I-0.111
G01 Z-0.600 F30
G03 F360
X7.096Y30.163 I-0.111
G01 Z-0.750 F30
G03 F360
X7.096Y30.163 I-0.111
G01 Z-0.900 F30
G03 F360
X7.096Y30.163 I-0.111
G01 Z-1.050 F30
G03 F360
X7.096Y30.163 I-0.111
G01 Z-1.200 F30
G03 F360
X7.096Y30.163 I-0.111
G01 Z-1.350 F30
G03 F360
X7.096Y30.163 I-0.111
G01 Z-1.500 F30
G03 F360
X7.096Y30.163 I-0.111
G01 Z-1.600 F30
G03 F360
X7.096Y30.163 I-0.111
G00 Z1.000
G00 X7.096Y32.703
G01 Z-0.150 F30
G03 F360
X7.096Y32.703 I-0.111
G01 Z-0.300 F30
G03 F360
X7.096Y32.703 I-0.111
G01 Z-0.450 F30
G03 F360
X7.096Y32.703 I-0.111
G01 Z-0.600 F30
G03 F360
X7.096Y32.703 I-0.111
G01 Z-0.750 F30
G03 F360
X7.096Y32.703 I-0.111
G01 Z-0.900 F30
G03 F360
X7.096Y32.703 I-0.111
G01 Z-1.050 F30
G03 F360
X7.096Y32.703 I-0.111
G01 Z-1.200 F30
G03 F360
X7.096Y32.703 I-0.111
G01 Z-1.350 F30
G03 F360
X7.096Y32.703 I-0.111
G01 Z-1.500 F30
G03 F360
X7.096Y32.703 I-0.111
G01 Z-1.600 F30
G03 F360
X7.096Y32.703 I-0.111
G00 Z1.000
G00 X7.096Y35.242
G01 Z-0.150 F30
G03 F360
X7.096Y35.242 I-0.111
G01 Z-0.300 F30
G03 F360
X7.096Y35.242 I-0.111
G01 Z-0.450 F30
G03 F360
X7.096Y35.242 I-0.111
G01 Z-0.600 F30
G03 F360
X7.096Y35.242 I-0.111
G01 Z-0.750 F30
G03 F360
X7.096Y35.242 I-0.111
G01 Z-0.900 F30
G03 F360
X7.096Y35.242 I-0.111
G01 Z-1.050 F30
G03 F360
X7.096Y35.242 I-0.111
G01 Z-1.200 F30
G03 F360
X7.096Y35.242 I-0.111
G01 Z-1.350 F30
G03 F360
X7.096Y35.242 I-0.111
G01 Z-1.500 F30
G03 F360
X7.096Y35.242 I-0.111
G01 Z-1.600 F30
G03 F360
X7.096Y35.242 I-0.111
G00 Z1.000
G00 X19.988Y35.878
G01 Z-0.150 F30
G03 F360
X19.988Y35.878 I-0.303
G01 Z-0.300 F30
G03 F360
X19.988Y35.878 I-0.303
G01 Z-0.450 F30
G03 F360
X19.988Y35.878 I-0.303
G01 Z-0.600 F30
G03 F360
X19.988Y35.878 I-0.303
G01 Z-0.750 F30
G03 F360
X19.988Y35.878 I-0.303
G01 Z-0.900 F30
G03 F360
X19.988Y35.878 I-0.303
G01 Z-1.050 F30
G03 F360
X19.988Y35.878 I-0.303
G01 Z-1.200 F30
G03 F360
X19.988Y35.878 I-0.303
G01 Z-1.350 F30
G03 F360
X19.988Y35.878 I-0.303
G01 Z-1.500 F30
G03 F360
X19.988Y35.878 I-0.303
G01 Z-1.600 F30
G03 F360
X19.988Y35.878 I-0.303
G00 Z1.000
G00 X19.988Y30.798
G01 Z-0.150 F30
G03 F360
X19.988Y30.798 I-0.303
G01 Z-0.300 F30
G03 F360
X19.988Y30.798 I-0.303
G01 Z-0.450 F30
G03 F360
X19.988Y30.798 I-0.303
G01 Z-0.600 F30
G03 F360
X19.988Y30.798 I-0.303
G01 Z-0.750 F30
G03 F360
X19.988Y30.798 I-0.303
G01 Z-0.900 F30
G03 F360
X19.988Y30.798 I-0.303
G01 Z-1.050 F30
G03 F360
X19.988Y30.798 I-0.303
G01 Z-1.200 F30
G03 F360
X19.988Y30.798 I-0.303
G01 Z-1.350 F30
G03 F360
X19.988Y30.798 I-0.303
G01 Z-1.500 F30
G03 F360
X19.988Y30.798 I-0.303
G01 Z-1.600 F30
G03 F360
X19.988Y30.798 I-0.303
G00 Z1.000
G00 X19.988Y40.958
G01 Z-0.150 F30
G03 F360
X19.988Y40.958 I-0.303
G01 Z-0.300 F30
G03 F360
X19.988Y40.958 I-0.303
G01 Z-0.450 F30
G03 F360
X19.988Y40.958 I-0.303
G01 Z-0.600 F30
G03 F360
X19.988Y40.958 I-0.303
G01 Z-0.750 F30
G03 F360
X19.988Y40.958 I-0.303
G01 Z-0.900 F30
G03 F360
X19.988Y40.958 I-0.303
G01 Z-1.050 F30
G03 F360
X19.988Y40.958 I-0.303
G01 Z-1.200 F30
G03 F360
X19.988Y40.958 I-0.303
G01 Z-1.350 F30
G03 F360
X19.988Y40.958 I-0.303
G01 Z-1.500 F30
G03 F360
X19.988Y40.958 I-0.303
G01 Z-1.600 F30
G03 F360
X19.988Y40.958 I-0.303
G00 Z1.000
G00 X14.908Y35.878
G01 Z-0.150 F30
G03 F360
X14.908Y35.878 I-0.303
G01 Z-0.300 F30
G03 F360
X14.908Y35.878 I-0.303
G01 Z-0.450 F30
G03 F360
X14.908Y35.878 I-0.303
G01 Z-0.600 F30
G03 F360
X14.908Y35.878 I-0.303
G01 Z-0.750 F30
G03 F360
X14.908Y35.878 I-0.303
G01 Z-0.900 F30
G03 F360
X14.908Y35.878 I-0.303
G01 Z-1.050 F30
G03 F360
X14.908Y35.878 I-0.303
G01 Z-1.200 F30
G03 F360
X14.908Y35.878 I-0.303
G01 Z-1.350 F30
G03 F360
X14.908Y35.878 I-0.303
G01 Z-1.500 F30
G03 F360
X14.908Y35.878 I-0.303
G01 Z-1.600 F30
G03 F360
X14.908Y35.878 I-0.303
G00 Z1.000
G00 X14.908Y30.798
G01 Z-0.150 F30
G03 F360
X14.908Y30.798 I-0.303
G01 Z-0.300 F30
G03 F360
X14.908Y30.798 I-0.303
G01 Z-0.450 F30
G03 F360
X14.908Y30.798 I-0.303
G01 Z-0.600 F30
G03 F360
X14.908Y30.798 I-0.303
G01 Z-0.750 F30
G03 F360
X14.908Y30.798 I-0.303
G01 Z-0.900 F30
G03 F360
X14.908Y30.798 I-0.303
G01 Z-1.050 F30
G03 F360
X14.908Y30.798 I-0.303
G01 Z-1.200 F30
G03 F360
X14.908Y30.798 I-0.303
G01 Z-1.350 F30
G03 F360
X14.908Y30.798 I-0.303
G01 Z-1.500 F30
G03 F360
X14.908Y30.798 I-0.303
G01 Z-1.600 F30
G03 F360
X14.908Y30.798 I-0.303
G00 Z1.000
G00 X14.908Y40.958
G01 Z-0.150 F30
G03 F360
X14.908Y40.958 I-0.303
G01 Z-0.300 F30
G03 F360
X14.908Y40.958 I-0.303
G01 Z-0.450 F30
G03 F360
X14.908Y40.958 I-0.303
G01 Z-0.600 F30
G03 F360
X14.908Y40.958 I-0.303
G01 Z-0.750 F30
G03 F360
X14.908Y40.958 I-0.303
G01 Z-0.900 F30
G03 F360
X14.908Y40.958 I-0.303
G01 Z-1.050 F30
G03 F360
X14.908Y40.958 I-0.303
G01 Z-1.200 F30
G03 F360
X14.908Y40.958 I-0.303
G01 Z-1.350 F30
G03 F360
X14.908Y40.958 I-0.303
G01 Z-1.500 F30
G03 F360
X14.908Y40.958 I-0.303
G01 Z-1.600 F30
G03 F360
X14.908Y40.958 I-0.303
G00 Z1.000
G00 X35.228Y35.878
G01 Z-0.150 F30
G03 F360
X35.228Y35.878 I-0.303
G01 Z-0.300 F30
G03 F360
X35.228Y35.878 I-0.303
G01 Z-0.450 F30
G03 F360
X35.228Y35.878 I-0.303
G01 Z-0.600 F30
G03 F360
X35.228Y35.878 I-0.303
G01 Z-0.750 F30
G03 F360
X35.228Y35.878 I-0.303
G01 Z-0.900 F30
G03 F360
X35.228Y35.878 I-0.303
G01 Z-1.050 F30
G03 F360
X35.228Y35.878 I-0.303
G01 Z-1.200 F30
G03 F360
X35.228Y35.878 I-0.303
G01 Z-1.350 F30
G03 F360
X35.228Y35.878 I-0.303
G01 Z-1.500 F30
G03 F360
X35.228Y35.878 I-0.303
G01 Z-1.600 F30
G03 F360
X35.228Y35.878 I-0.303
G00 Z1.000
G00 X35.228Y30.798
G01 Z-0.150 F30
G03 F360
X35.228Y30.798 I-0.303
G01 Z-0.300 F30
G03 F360
X35.228Y30.798 I-0.303
G01 Z-0.450 F30
G03 F360
X35.228Y30.798 I-0.303
G01 Z-0.600 F30
G03 F360
X35.228Y30.798 I-0.303
G01 Z-0.750 F30
G03 F360
X35.228Y30.798 I-0.303
G01 Z-0.900 F30
G03 F360
X35.228Y30.798 I-0.303
G01 Z-1.050 F30
G03 F360
X35.228Y30.798 I-0.303
G01 Z-1.200 F30
G03 F360
X35.228Y30.798 I-0.303
G01 Z-1.350 F30
G03 F360
X35.228Y30.798 I-0.303
G01 Z-1.500 F30
G03 F360
X35.228Y30.798 I-0.303
G01 Z-1.600 F30
G03 F360
X35.228Y30.798 I-0.303
G00 Z1.000
G00 X35.228Y40.958
G01 Z-0.150 F30
G03 F360
X35.228Y40.958 I-0.303
G01 Z-0.300 F30
G03 F360
X35.228Y40.958 I-0.303
G01 Z-0.450 F30
G03 F360
X35.228Y40.958 I-0.303
G01 Z-0.600 F30
G03 F360
X35.228Y40.958 I-0.303
G01 Z-0.750 F30
G03 F360
X35.228Y40.958 I-0.303
G01 Z-0.900 F30
G03 F360
X35.228Y40.958 I-0.303
G01 Z-1.050 F30
G03 F360
X35.228Y40.958 I-0.303
G01 Z-1.200 F30
G03 F360
X35.228Y40.958 I-0.303
G01 Z-1.350 F30
G03 F360
X35.228Y40.958 I-0.303
G01 Z-1.500 F30
G03 F360
X35.228Y40.958 I-0.303
G01 Z-1.600 F30
G03 F360
X35.228Y40.958 I-0.303
G00 Z1.000
G00 X25.068Y35.878
G01 Z-0.150 F30
G03 F360
X25.068Y35.878 I-0.303
G01 Z-0.300 F30
G03 F360
X25.068Y35.878 I-0.303
G01 Z-0.450 F30
G03 F360
X25.068Y35.878 I-0.303
G01 Z-0.600 F30
G03 F360
X25.068Y35.878 I-0.303
G01 Z-0.750 F30
G03 F360
X25.068Y35.878 I-0.303
G01 Z-0.900 F30
G03 F360
X25.068Y35.878 I-0.303
G01 Z-1.050 F30
G03 F360
X25.068Y35.878 I-0.303
G01 Z-1.200 F30
G03 F360
X25.068Y35.878 I-0.303
G01 Z-1.350 F30
G03 F360
X25.068Y35.878 I-0.303
G01 Z-1.500 F30
G03 F360
X25.068Y35.878 I-0.303
G01 Z-1.600 F30
G03 F360
X25.068Y35.878 I-0.303
G00 Z1.000
G00 X25.068Y30.798
G01 Z-0.150 F30
G03 F360
X25.068Y30.798 I-0.303
G01 Z-0.300 F30
G03 F360
X25.068Y30.798 I-0.303
G01 Z-0.450 F30
G03 F360
X25.068Y30.798 I-0.303
G01 Z-0.600 F30
G03 F360
X25.068Y30.798 I-0.303
G01 Z-0.750 F30
G03 F360
X25.068Y30.798 I-0.303
G01 Z-0.900 F30
G03 F360
X25.068Y30.798 I-0.303
G01 Z-1.050 F30
G03 F360
X25.068Y30.798 I-0.303
G01 Z-1.200 F30
G03 F360
X25.068Y30.798 I-0.303
G01 Z-1.350 F30
G03 F360
X25.068Y30.798 I-0.303
G01 Z-1.500 F30
G03 F360
X25.068Y30.798 I-0.303
G01 Z-1.600 F30
G03 F360
X25.068Y30.798 I-0.303
G00 Z1.000
G00 X25.068Y40.958
G01 Z-0.150 F30
G03 F360
X25.068Y40.958 I-0.303
G01 Z-0.300 F30
G03 F360
X25.068Y40.958 I-0.303
G01 Z-0.450 F30
G03 F360
X25.068Y40.958 I-0.303
G01 Z-0.600 F30
G03 F360
X25.068Y40.958 I-0.303
G01 Z-0.750 F30
G03 F360
X25.068Y40.958 I-0.303
G01 Z-0.900 F30
G03 F360
X25.068Y40.958 I-0.303
G01 Z-1.050 F30
G03 F360
X25.068Y40.958 I-0.303
G01 Z-1.200 F30
G03 F360
X25.068Y40.958 I-0.303
G01 Z-1.350 F30
G03 F360
X25.068Y40.958 I-0.303
G01 Z-1.500 F30
G03 F360
X25.068Y40.958 I-0.303
G01 Z-1.600 F30
G03 F360
X25.068Y40.958 I-0.303
G00 Z1.000
G00 X30.148Y35.878
G01 Z-0.150 F30
G03 F360
X30.148Y35.878 I-0.303
G01 Z-0.300 F30
G03 F360
X30.148Y35.878 I-0.303
G01 Z-0.450 F30
G03 F360
X30.148Y35.878 I-0.303
G01 Z-0.600 F30
G03 F360
X30.148Y35.878 I-0.303
G01 Z-0.750 F30
G03 F360
X30.148Y35.878 I-0.303
G01 Z-0.900 F30
G03 F360
X30.148Y35.878 I-0.303
G01 Z-1.050 F30
G03 F360
X30.148Y35.878 I-0.303
G01 Z-1.200 F30
G03 F360
X30.148Y35.878 I-0.303
G01 Z-1.350 F30
G03 F360
X30.148Y35.878 I-0.303
G01 Z-1.500 F30
G03 F360
X30.148Y35.878 I-0.303
G01 Z-1.600 F30
G03 F360
X30.148Y35.878 I-0.303
G00 Z1.000
G00 X30.148Y30.798
G01 Z-0.150 F30
G03 F360
X30.148Y30.798 I-0.303
G01 Z-0.300 F30
G03 F360
X30.148Y30.798 I-0.303
G01 Z-0.450 F30
G03 F360
X30.148Y30.798 I-0.303
G01 Z-0.600 F30
G03 F360
X30.148Y30.798 I-0.303
G01 Z-0.750 F30
G03 F360
X30.148Y30.798 I-0.303
G01 Z-0.900 F30
G03 F360
X30.148Y30.798 I-0.303
G01 Z-1.050 F30
G03 F360
X30.148Y30.798 I-0.303
G01 Z-1.200 F30
G03 F360
X30.148Y30.798 I-0.303
G01 Z-1.350 F30
G03 F360
X30.148Y30.798 I-0.303
G01 Z-1.500 F30
G03 F360
X30.148Y30.798 I-0.303
G01 Z-1.600 F30
G03 F360
X30.148Y30.798 I-0.303
G00 Z1.000
G00 X30.148Y40.958
G01 Z-0.150 F30
G03 F360
X30.148Y40.958 I-0.303
G01 Z-0.300 F30
G03 F360
X30.148Y40.958 I-0.303
G01 Z-0.450 F30
G03 F360
X30.148Y40.958 I-0.303
G01 Z-0.600 F30
G03 F360
X30.148Y40.958 I-0.303
G01 Z-0.750 F30
G03 F360
X30.148Y40.958 I-0.303
G01 Z-0.900 F30
G03 F360
X30.148Y40.958 I-0.303
G01 Z-1.050 F30
G03 F360
X30.148Y40.958 I-0.303
G01 Z-1.200 F30
G03 F360
X30.148Y40.958 I-0.303
G01 Z-1.350 F30
G03 F360
X30.148Y40.958 I-0.303
G01 Z-1.500 F30
G03 F360
X30.148Y40.958 I-0.303
G01 Z-1.600 F30
G03 F360
X30.148Y40.958 I-0.303
G00 Z1.000
G00 X26.406Y1.905
G01 Z-0.150 F30
G03 F360
X26.406Y1.905 I-0.053
G01 Z-0.300 F30
G03 F360
X26.406Y1.905 I-0.053
G01 Z-0.450 F30
G03 F360
X26.406Y1.905 I-0.053
G01 Z-0.600 F30
G03 F360
X26.406Y1.905 I-0.053
G01 Z-0.750 F30
G03 F360
X26.406Y1.905 I-0.053
G01 Z-0.900 F30
G03 F360
X26.406Y1.905 I-0.053
G01 Z-1.050 F30
G03 F360
X26.406Y1.905 I-0.053
G01 Z-1.200 F30
G03 F360
X26.406Y1.905 I-0.053
G01 Z-1.350 F30
G03 F360
X26.406Y1.905 I-0.053
G01 Z-1.500 F30
G03 F360
X26.406Y1.905 I-0.053
G01 Z-1.600 F30
G03 F360
X26.406Y1.905 I-0.053
G00 Z1.000
G00 X26.406Y27.305
G01 Z-0.150 F30
G03 F360
X26.406Y27.305 I-0.053
G01 Z-0.300 F30
G03 F360
X26.406Y27.305 I-0.053
G01 Z-0.450 F30
G03 F360
X26.406Y27.305 I-0.053
G01 Z-0.600 F30
G03 F360
X26.406Y27.305 I-0.053
G01 Z-0.750 F30
G03 F360
X26.406Y27.305 I-0.053
G01 Z-0.900 F30
G03 F360
X26.406Y27.305 I-0.053
G01 Z-1.050 F30
G03 F360
X26.406Y27.305 I-0.053
G01 Z-1.200 F30
G03 F360
X26.406Y27.305 I-0.053
G01 Z-1.350 F30
G03 F360
X26.406Y27.305 I-0.053
G01 Z-1.500 F30
G03 F360
X26.406Y27.305 I-0.053
G01 Z-1.600 F30
G03 F360
X26.406Y27.305 I-0.053
G00 Z1.000
G00 X39.608Y18.733
G01 Z-0.150 F30
G03 F360
X39.608Y18.733 I-2.143
G01 Z-0.300 F30
G03 F360
X39.608Y18.733 I-2.143
G01 Z-0.450 F30
G03 F360
X39.608Y18.733 I-2.143
G01 Z-0.600 F30
G03 F360
X39.608Y18.733 I-2.143
G01 Z-0.750 F30
G03 F360
X39.608Y18.733 I-2.143
G01 Z-0.900 F30
G03 F360
X39.608Y18.733 I-2.143
G01 Z-1.050 F30
G03 F360
X39.608Y18.733 I-2.143
G01 Z-1.200 F30
G03 F360
X39.608Y18.733 I-2.143
G01 Z-1.350 F30
G03 F360
X39.608Y18.733 I-2.143
G01 Z-1.500 F30
G03 F360
X39.608Y18.733 I-2.143
G01 Z-1.600 F30
G03 F360
X39.608Y18.733 I-2.143
G00 Z1.000
G00 X14.208Y18.733
G01 Z-0.150 F30
G03 F360
X14.208Y18.733 I-2.143
G01 Z-0.300 F30
G03 F360
X14.208Y18.733 I-2.143
G01 Z-0.450 F30
G03 F360
X14.208Y18.733 I-2.143
G01 Z-0.600 F30
G03 F360
X14.208Y18.733 I-2.143
G01 Z-0.750 F30
G03 F360
X14.208Y18.733 I-2.143
G01 Z-0.900 F30
G03 F360
X14.208Y18.733 I-2.143
G01 Z-1.050 F30
G03 F360
X14.208Y18.733 I-2.143
G01 Z-1.200 F30
G03 F360
X14.208Y18.733 I-2.143
G01 Z-1.350 F30
G03 F360
X14.208Y18.733 I-2.143
G01 Z-1.500 F30
G03 F360
X14.208Y18.733 I-2.143
G01 Z-1.600 F30
G03 F360
X14.208Y18.733 I-2.143
G00 Z1.000
G00 X39.608Y50.483
G01 Z-0.150 F30
G03 F360
X39.608Y50.483 I-2.143
G01 Z-0.300 F30
G03 F360
X39.608Y50.483 I-2.143
G01 Z-0.450 F30
G03 F360
X39.608Y50.483 I-2.143
G01 Z-0.600 F30
G03 F360
X39.608Y50.483 I-2.143
G01 Z-0.750 F30
G03 F360
X39.608Y50.483 I-2.143
G01 Z-0.900 F30
G03 F360
X39.608Y50.483 I-2.143
G01 Z-1.050 F30
G03 F360
X39.608Y50.483 I-2.143
G01 Z-1.200 F30
G03 F360
X39.608Y50.483 I-2.143
G01 Z-1.350 F30
G03 F360
X39.608Y50.483 I-2.143
G01 Z-1.500 F30
G03 F360
X39.608Y50.483 I-2.143
G01 Z-1.600 F30
G03 F360
X39.608Y50.483 I-2.143
G00 Z1.000
G00 X14.208Y50.483
G01 Z-0.150 F30
G03 F360
X14.208Y50.483 I-2.143
G01 Z-0.300 F30
G03 F360
X14.208Y50.483 I-2.143
G01 Z-0.450 F30
G03 F360
X14.208Y50.483 I-2.143
G01 Z-0.600 F30
G03 F360
X14.208Y50.483 I-2.143
G01 Z-0.750 F30
G03 F360
X14.208Y50.483 I-2.143
G01 Z-0.900 F30
G03 F360
X14.208Y50.483 I-2.143
G01 Z-1.050 F30
G03 F360
X14.208Y50.483 I-2.143
G01 Z-1.200 F30
G03 F360
X14.208Y50.483 I-2.143
G01 Z-1.350 F30
G03 F360
X14.208Y50.483 I-2.143
G01 Z-1.500 F30
G03 F360
X14.208Y50.483 I-2.143
G01 Z-1.600 F30
G03 F360
X14.208Y50.483 I-2.143
G00 Z1.000
M05
G04 P4000
G00 X0Y0
